; generated by PrusaSlicer 2.5.2+MacOS-arm64 on 2023-04-21 at 15:02:47 UTC


;
;

;
;
; 

; external perimeters extrusion width = 0.45mm
; perimeters extrusion width = 0.45mm
; infill extrusion width = 0.45mm
; solid infill extrusion width = 0.45mm
; top infill extrusion width = 0.40mm
; first layer extrusion width = 0.42mm

M73 P0 R98
M201 X2500 Y2500 Z400 E5000 ; sets maximum accelerations, mm/sec^2
M203 X180 Y180 Z12 E80 ; sets maximum feedrates, mm / sec
M204 P2000 R1250 T2500 ; sets acceleration (P, T) and retract acceleration (R), mm/sec^2
M205 X8.00 Y8.00 Z2.00 E10.00 ; sets the jerk limits, mm/sec
M205 S0 T0 ; sets the minimum extruding and travel feed rate, mm/sec
M107
;TYPE:Custom
M862.3 P "MINI" ; printer model check
G90 ; use absolute coordinates
M83 ; extruder relative mode
M104 S170 ; set extruder temp for bed leveling
M140 S60 ; set bed temp
M109 R170 ; wait for bed leveling temp
M190 S60 ; wait for bed temp
M204 T1250 ; set travel acceleration
G28 ; home all without mesh bed level
G29 ; mesh bed leveling 
M204 T2500 ; restore travel acceleration
M104 S215 ; set extruder temp
G92 E0
G1 Y-2 X179 F2400
G1 Z3 F720
M109 S215 ; wait for extruder temp

; intro line
G1 X170 F1000
G1 Z0.2 F720
G1 X110 E8 F900
G1 X40 E10 F700
G92 E0

M221 S95 ; set flow
G21 ; set units to millimeters
G90 ; use absolute coordinates
M83 ; use relative distances for extrusion
M900 K0.2 ; Filament gcode LA 1.5
; ; Filament gcode LA 1.0
M107
;LAYER_CHANGE
;Z:0.2
;HEIGHT:0.2
;BEFORE_LAYER_CHANGE
G92 E0.0
;0.2


G1 E-3.2 F4200
G1 Z.2 F720
;AFTER_LAYER_CHANGE
;0.2
G1 Z.4
G1 X49.581 Y70.142 F9000
G1 Z.2 F720
G1 E3.2 F2400
M204 P600
;TYPE:Skirt/Brim
;WIDTH:0.42
G1 F1200
G1 X50.403 Y69.613 E.03065
G1 X51.334 Y69.315 E.03065
G1 X52 Y69.248 E.02099
G1 X128.31 Y69.268 E2.39265
G1 X129.597 Y69.613 E.04178
M73 P0 R97
G1 X130.419 Y70.142 E.03064
G1 X130.858 Y70.581 E.01947
G1 X131.524 Y71.735 E.04177
G1 X131.685 Y72.334 E.01945
G1 X131.752 Y73 E.02099
G1 X131.752 Y107 E1.06605
G1 X131.685 Y107.667 E.02101
G1 X131.524 Y108.266 E.01945
G1 X131.077 Y109.134 E.03063
G1 X130.419 Y109.858 E.03068
G1 X129.597 Y110.387 E.03063
G1 X128.666 Y110.685 E.03066
G1 X128 Y110.752 E.02099
G1 X52 Y110.752 E2.38293
G1 X51.333 Y110.685 E.021
G1 X50.734 Y110.524 E.01945
G1 X49.866 Y110.077 E.03063
G1 X49.142 Y109.419 E.03066
G1 X48.613 Y108.597 E.03065
G1 X48.315 Y107.666 E.03065
G1 X48.248 Y107 E.02099
G1 X48.248 Y73 E1.06605
G1 X48.315 Y72.334 E.02099
G1 X48.476 Y71.734 E.01946
G1 X48.923 Y70.865 E.03065
G1 X49.54 Y70.186 E.02877
M204 P1000
; printing object Divider Box 2x1x3 1-Compartment.stl id:0 copy 0
G1 E-2.24 F4200
;WIPE_START
G1 F7200
G1 X50.403 Y69.613 E-.57391
G1 X50.984 Y69.427 E-.33809
;WIPE_END
G1 E-.048 F4200
G1 Z.4 F720
G1 X97.042 Y80.915 F9000
G1 Z.2 F720
G1 E3.2 F2400
M204 P600
;TYPE:Perimeter
;WIDTH:0.419999
G1 F1200
G1 X97.862 Y81.033 E.02598
G1 X98.627 Y80.987 E.02405
G1 X99.371 Y80.796 E.02406
G1 X100.064 Y80.468 E.02406
G1 X100.683 Y80.015 E.02406
G1 X101.205 Y79.452 E.02406
G1 X101.612 Y78.801 E.02405
G1 X101.887 Y78.085 E.02406
G1 X102.022 Y77.33 E.02406
G1 X102.012 Y76.563 E.02406
G1 X101.857 Y75.811 E.02406
G1 X101.562 Y75.103 E.02406
G1 X101.139 Y74.463 E.02406
G1 X100.602 Y73.915 E.02406
G1 X99.971 Y73.478 E.02406
G1 X99.269 Y73.169 E.02406
;WIDTH:0.462396
G1 X99.06 Y73.096 E.00771
;WIDTH:0.504792
G1 X98.851 Y73.024 E.00849
;WIDTH:0.547188
G1 X98.642 Y72.951 E.00927
G1 X98.862 Y72.93 E.00927
;WIDTH:0.504792
G1 X99.083 Y72.909 E.00849
;WIDTH:0.462396
G1 X99.303 Y72.888 E.00771
;WIDTH:0.419999
G1 X122.303 Y72.891 E.72115
;WIDTH:0.464546
G1 X122.494 Y72.914 E.00676
;WIDTH:0.509092
G1 X122.685 Y72.936 E.00747
;WIDTH:0.553638
G1 X122.877 Y72.958 E.00818
;WIDTH:0.598184
G1 X123.068 Y72.981 E.0089
G1 X122.975 Y73.029 E.00486
;WIDTH:0.5508
G1 X122.742 Y73.137 E.01085
;WIDTH:0.5072
G1 X122.508 Y73.244 E.00992
;WIDTH:0.4636
G1 X122.275 Y73.351 E.00899
;WIDTH:0.419999
G1 X121.615 Y73.744 E.02406
G1 X121.042 Y74.254 E.02405
G1 X120.576 Y74.863 E.02406
G1 X120.234 Y75.55 E.02406
G1 X120.027 Y76.289 E.02406
G1 X119.964 Y77.054 E.02406
G1 X120.048 Y77.817 E.02406
G1 X120.274 Y78.55 E.02406
G1 X120.634 Y79.227 E.02406
G1 X121.116 Y79.824 E.02406
G1 X121.703 Y80.318 E.02406
G1 X122.372 Y80.693 E.02406
G1 X123.101 Y80.934 E.02406
G1 X123.862 Y81.033 E.02406
G1 X124.627 Y80.987 E.02405
G1 X125.371 Y80.796 E.02406
G1 X126.064 Y80.468 E.02406
G1 X126.683 Y80.015 E.02406
G1 X127.205 Y79.452 E.02406
G1 X127.612 Y78.801 E.02405
G1 X127.887 Y78.085 E.02406
;WIDTH:0.468611
G1 X127.975 Y77.766 E.01172
;WIDTH:0.517223
G1 X128.062 Y77.447 E.01306
G1 X128.088 Y77.777 E.01306
;WIDTH:0.468611
G1 X128.113 Y78.107 E.01172
;WIDTH:0.419999
G1 X128.113 Y101.893 E.7458
;WIDTH:0.453893
G1 X128.096 Y102.113 E.00754
;WIDTH:0.487787
G1 X128.079 Y102.333 E.00816
;WIDTH:0.52168
G1 X128.062 Y102.553 E.00879
G1 X127.994 Y102.306 E.01021
;WIDTH:0.487787
G1 X127.925 Y102.059 E.00949
;WIDTH:0.453893
G1 X127.857 Y101.811 E.00877
;WIDTH:0.419999
G1 X127.562 Y101.103 E.02405
G1 X127.139 Y100.463 E.02406
G1 X126.602 Y99.915 E.02406
G1 X125.971 Y99.478 E.02406
G1 X125.269 Y99.169 E.02406
G1 X124.514 Y98.998 E.02427
G1 X123.71 Y98.978 E.02522
G1 X122.996 Y99.091 E.02265
G1 X122.275 Y99.351 E.02406
G1 X121.615 Y99.744 E.02406
G1 X121.042 Y100.254 E.02405
G1 X120.576 Y100.863 E.02406
G1 X120.234 Y101.55 E.02406
G1 X120.027 Y102.289 E.02406
G1 X119.964 Y103.054 E.02406
G1 X120.048 Y103.817 E.02406
G1 X120.274 Y104.55 E.02405
G1 X120.634 Y105.227 E.02406
G1 X121.116 Y105.824 E.02406
G1 X121.703 Y106.318 E.02406
G1 X122.372 Y106.693 E.02406
;WIDTH:0.464842
G1 X122.551 Y106.776 E.00691
;WIDTH:0.509684
G1 X122.73 Y106.858 E.00765
;WIDTH:0.554526
G1 X122.909 Y106.941 E.00838
;WIDTH:0.599368
G1 X123.088 Y107.023 E.00912
G1 X123.025 Y107.037 E.00299
;WIDTH:0.570903
G1 X122.962 Y107.052 E.00284
;WIDTH:0.542437
G1 X122.742 Y107.072 E.00918
;WIDTH:0.501625
G1 X122.522 Y107.093 E.00843
;WIDTH:0.460812
G1 X122.302 Y107.113 E.00768
;WIDTH:0.419999
G1 X99.303 Y107.113 E.72112
;WIDTH:0.459868
G1 X99.069 Y107.093 E.00812
;WIDTH:0.499737
G1 X98.836 Y107.073 E.0089
;WIDTH:0.539606
G1 X98.602 Y107.053 E.00968
G1 X98.64 Y107.039 E.00167
;WIDTH:0.527494
G1 X98.884 Y106.958 E.01034
;WIDTH:0.491663
G1 X99.127 Y106.877 E.00958
;WIDTH:0.455831
G1 X99.371 Y106.796 E.00881
;WIDTH:0.419999
G1 X100.064 Y106.468 E.02406
G1 X100.683 Y106.015 E.02406
G1 X101.205 Y105.452 E.02406
G1 X101.612 Y104.801 E.02405
G1 X101.887 Y104.085 E.02406
G1 X102.022 Y103.33 E.02406
G1 X102.012 Y102.563 E.02405
G1 X101.857 Y101.811 E.02406
G1 X101.562 Y101.103 E.02405
G1 X101.139 Y100.463 E.02406
G1 X100.602 Y99.915 E.02406
G1 X99.971 Y99.478 E.02406
G1 X99.269 Y99.169 E.02406
G1 X98.514 Y98.998 E.02427
G1 X97.71 Y98.978 E.02522
G1 X96.996 Y99.091 E.02265
G1 X96.275 Y99.351 E.02406
G1 X95.615 Y99.744 E.02406
G1 X95.042 Y100.254 E.02405
G1 X94.576 Y100.863 E.02406
G1 X94.234 Y101.55 E.02406
;WIDTH:0.466809
G1 X94.141 Y101.794 E.0092
;WIDTH:0.513619
G1 X94.049 Y102.038 E.01021
;WIDTH:0.560428
G1 X93.957 Y102.282 E.01123
G1 X93.936 Y102.16 E.00533
;WIDTH:0.517381
G1 X93.911 Y101.83 E.01306
;WIDTH:0.46869
G1 X93.887 Y101.5 E.01172
;WIDTH:0.419999
G1 X93.887 Y78.5 E.72116
;WIDTH:0.469056
G1 X93.912 Y78.256 E.00869
;WIDTH:0.518112
G1 X93.936 Y78.012 E.00969
;WIDTH:0.567168
G1 X93.961 Y77.768 E.01069
G1 X93.99 Y77.834 E.00314
;WIDTH:0.540498
G1 X94.084 Y78.072 E.01062
;WIDTH:0.500332
G1 X94.179 Y78.311 E.00977
;WIDTH:0.460166
G1 X94.274 Y78.55 E.00891
;WIDTH:0.419999
G1 X94.634 Y79.227 E.02406
G1 X95.116 Y79.824 E.02406
G1 X95.703 Y80.318 E.02406
G1 X96.372 Y80.693 E.02406
G1 X96.985 Y80.896 E.02022
M204 P1000
G1 E-2.24 F4200
;WIPE_START
G1 F7200
G1 X97.862 Y81.033 E-.49195
G1 X98.618 Y80.987 E-.42005
;WIPE_END
G1 E-.048 F4200
G1 Z.4 F720
G1 X93.957 Y76.282 F9000
G1 Z.2 F720
G1 E3.2 F2400
M204 P600
;WIDTH:0.560428
G1 F1200
G1 X93.936 Y76.16 E.00533
;WIDTH:0.517385
G1 X93.911 Y75.83 E.01306
;WIDTH:0.468692
G1 X93.887 Y75.5 E.01172
;WIDTH:0.419999
G1 X93.887 Y73.088 E.07565
G1 X93.922 Y72.953 E.00435
G1 X94.087 Y72.887 E.00558
G1 X96.302 Y72.887 E.06944
;WIDTH:0.465529
G1 X96.493 Y72.91 E.00678
;WIDTH:0.511058
G1 X96.685 Y72.933 E.00751
;WIDTH:0.556587
G1 X96.876 Y72.956 E.00824
;WIDTH:0.602116
G1 X97.068 Y72.979 E.00897
G1 X96.975 Y73.028 E.00491
;WIDTH:0.553542
G1 X96.741 Y73.136 E.01091
;WIDTH:0.509028
G1 X96.508 Y73.244 E.00996
;WIDTH:0.464514
G1 X96.275 Y73.351 E.00901
;WIDTH:0.419999
G1 X95.615 Y73.744 E.02406
G1 X95.042 Y74.254 E.02405
G1 X94.576 Y74.863 E.02406
G1 X94.234 Y75.55 E.02406
;WIDTH:0.466809
G1 X94.141 Y75.794 E.0092
;WIDTH:0.513619
G1 X94.049 Y76.038 E.01021
;WIDTH:0.560428
G1 X93.978 Y76.226 E.00865
M204 P1000
G1 E-2.24 F4200
;WIPE_START
G1 F7200
G1 X93.936 Y76.16 E-.04352
G1 X93.911 Y75.83 E-.18342
G1 X93.887 Y75.5 E-.18342
G1 X93.887 Y74.595 E-.50165
;WIPE_END
G1 E-.048 F4200
G1 Z.4 F720
G1 X97.165 Y80.563 F9000
G1 Z.2 F720
G1 E3.2 F2400
M204 P600
;TYPE:External perimeter
;WIDTH:0.419999
G1 F1200
G1 X96.496 Y80.337 E.02215
G1 X95.891 Y79.992 E.02182
G1 X95.363 Y79.539 E.02182
G1 X94.931 Y78.994 E.02182
G1 X94.609 Y78.377 E.02182
G1 X94.409 Y77.71 E.02182
G1 X94.34 Y77.018 E.02182
G1 X94.403 Y76.325 E.02182
G1 X94.595 Y75.656 E.02182
G1 X94.911 Y75.036 E.02182
G1 X95.339 Y74.487 E.02182
G1 X95.862 Y74.029 E.02182
G1 X96.463 Y73.678 E.02182
G1 X97.12 Y73.447 E.02182
G1 X97.763 Y73.351 E.02041
G1 X98.501 Y73.374 E.02313
G1 X99.18 Y73.535 E.02189
G1 X99.815 Y73.821 E.02182
G1 X100.383 Y74.222 E.02182
G1 X100.866 Y74.723 E.02182
G1 X101.245 Y75.307 E.02182
G1 X101.507 Y75.952 E.02182
G1 X101.642 Y76.634 E.02182
G1 X101.645 Y77.33 E.02182
G1 X101.517 Y78.014 E.02182
G1 X101.261 Y78.661 E.02182
G1 X100.888 Y79.248 E.02182
G1 X100.41 Y79.754 E.02182
G1 X99.846 Y80.161 E.02182
G1 X99.214 Y80.453 E.02182
G1 X98.539 Y80.62 E.02182
G1 X97.844 Y80.657 E.02181
G1 X97.225 Y80.571 E.0196
M204 P1000
G1 X96.891 Y80.854 F9000
G1 E-2.24 F4200
;WIPE_START
G1 F7200
G1 X96.496 Y80.337 E-.42423
G1 X95.891 Y79.992 E-.38561
G1 X95.752 Y79.872 E-.10216
;WIPE_END
G1 E-.048 F4200
G1 Z.4 F720
G1 X93.961 Y77.768 F9000
G1 Z.2 F720
G1 E3.2 F2400
M204 P600
;TYPE:Perimeter
;WIDTH:0.567168
G1 F1200
G1 X93.943 Y77.413 E.0155
;WIDTH:0.532366
G1 X93.926 Y77.057 E.01447
;WIDTH:0.528996
G1 X93.942 Y76.67 E.01567
;WIDTH:0.560428
G1 X93.957 Y76.282 E.01669
M204 P1000
G1 E-2.24 F4200
;WIPE_START
G1 F7200
G1 X93.942 Y76.67 E-.21492
G1 X93.926 Y77.057 E-.21492
G1 X93.943 Y77.413 E-.19702
G1 X93.961 Y77.768 E-.19702
;WIPE_END
G1 E-.13613 F4200
G1 Z.4 F720
G1 X97.068 Y72.979 F9000
G1 Z.2 F720
G1 E3.2 F2400
M204 P600
;WIDTH:0.602116
G1 F1200
G1 X97.386 Y72.956 E.01481
;WIDTH:0.556473
G1 X97.703 Y72.933 E.0136
;WIDTH:0.529862
G1 X98.516 Y72.943 E.03291
;WIDTH:0.547188
G1 X98.642 Y72.951 E.00531
M204 P1000
G1 E-2.24 F4200
;WIPE_START
G1 F7200
G1 X98.516 Y72.943 E-.07017
G1 X97.703 Y72.933 E-.4504
G1 X97.386 Y72.956 E-.1765
G1 X97.068 Y72.979 E-.1765
;WIPE_END
G1 E-.08643 F4200
G1 Z.4 F720
G1 X128.062 Y76.553 F9000
G1 Z.2 F720
G1 E3.2 F2400
M204 P600
;WIDTH:0.52168
G1 F1200
G1 X127.994 Y76.306 E.01021
;WIDTH:0.487787
G1 X127.925 Y76.059 E.00949
;WIDTH:0.453893
G1 X127.857 Y75.811 E.00877
;WIDTH:0.419999
G1 X127.562 Y75.103 E.02406
G1 X127.139 Y74.463 E.02406
G1 X126.602 Y73.915 E.02406
G1 X125.971 Y73.478 E.02406
G1 X125.269 Y73.169 E.02406
;WIDTH:0.461076
G1 X125.06 Y73.097 E.00769
;WIDTH:0.502153
G1 X124.851 Y73.025 E.00844
;WIDTH:0.54323
G1 X124.642 Y72.953 E.0092
G1 X124.862 Y72.933 E.0092
;WIDTH:0.502153
G1 X125.082 Y72.912 E.00844
;WIDTH:0.461076
G1 X125.302 Y72.892 E.00769
;WIDTH:0.419999
G1 X127.372 Y72.892 E.06489
G1 X128.043 Y72.919 E.02107
G1 X128.113 Y73.088 E.00571
G1 X128.113 Y75.893 E.08797
;WIDTH:0.453893
G1 X128.096 Y76.113 E.00754
;WIDTH:0.487787
G1 X128.079 Y76.333 E.00816
;WIDTH:0.52168
G1 X128.067 Y76.493 E.0064
M204 P1000
G1 E-2.24 F4200
;WIPE_START
G1 F7200
G1 X127.994 Y76.306 E-.11148
G1 X127.925 Y76.059 E-.14218
G1 X127.857 Y75.811 E-.14218
G1 X127.562 Y75.103 E-.42517
G1 X127.472 Y74.966 E-.09098
;WIPE_END
G1 E-.048 F4200
G1 Z.4 F720
G1 X123.166 Y80.563 F9000
G1 Z.2 F720
G1 E3.2 F2400
M204 P600
;TYPE:External perimeter
;WIDTH:0.419999
G1 F1200
G1 X122.496 Y80.337 E.02217
G1 X121.892 Y79.992 E.02182
G1 X121.363 Y79.539 E.02182
G1 X120.931 Y78.994 E.02182
G1 X120.609 Y78.377 E.02182
G1 X120.409 Y77.71 E.02182
G1 X120.34 Y77.018 E.02182
G1 X120.403 Y76.325 E.02182
G1 X120.595 Y75.656 E.02182
G1 X120.911 Y75.036 E.02182
G1 X121.339 Y74.487 E.02182
G1 X121.862 Y74.029 E.02182
G1 X122.463 Y73.678 E.02182
G1 X123.12 Y73.447 E.02182
G1 X123.763 Y73.351 E.02041
G1 X124.501 Y73.374 E.02313
G1 X125.18 Y73.535 E.02189
G1 X125.815 Y73.821 E.02182
G1 X126.383 Y74.222 E.02182
G1 X126.866 Y74.723 E.02182
G1 X127.245 Y75.307 E.02182
G1 X127.507 Y75.952 E.02182
G1 X127.642 Y76.634 E.02182
G1 X127.645 Y77.33 E.02182
G1 X127.517 Y78.014 E.02182
G1 X127.261 Y78.661 E.02182
G1 X126.888 Y79.248 E.02182
G1 X126.41 Y79.754 E.02182
G1 X125.846 Y80.161 E.02182
G1 X125.214 Y80.453 E.02182
G1 X124.539 Y80.62 E.02182
G1 X123.844 Y80.657 E.02181
G1 X123.225 Y80.571 E.01958
M204 P1000
G1 X122.892 Y80.854 F9000
G1 E-2.24 F4200
;WIPE_START
G1 F7200
G1 X122.496 Y80.337 E-.4245
G1 X121.892 Y79.992 E-.38561
G1 X121.752 Y79.872 E-.10189
;WIPE_END
G1 E-.048 F4200
G1 Z.4 F720
G1 X123.068 Y72.981 F9000
G1 Z.2 F720
G1 E3.2 F2400
M204 P600
;TYPE:Perimeter
;WIDTH:0.598184
G1 F1200
G1 X123.386 Y72.958 E.0147
;WIDTH:0.552546
G1 X123.704 Y72.935 E.0135
;WIDTH:0.52596
G1 X124.516 Y72.945 E.03263
;WIDTH:0.54323
G1 X124.642 Y72.953 E.00525
M204 P1000
G1 E-2.24 F4200
;WIPE_START
G1 F7200
G1 X124.516 Y72.945 E-.06994
G1 X123.704 Y72.935 E-.45021
G1 X123.386 Y72.958 E-.17648
G1 X123.068 Y72.981 E-.17648
;WIPE_END
G1 E-.08688 F4200
G1 Z.4 F720
G1 X128.062 Y76.553 F9000
G1 Z.2 F720
G1 E3.2 F2400
M204 P600
;WIDTH:0.52168
G1 F1200
G1 X128.068 Y77.33 E.03092
;WIDTH:0.5198
G1 X128.063 Y77.436 E.00422
M204 P1000
G1 E-2.24 F4200
;WIPE_START
G1 F7200
G1 X128.068 Y77.33 E-.05899
G1 X128.062 Y76.553 E-.43048
;WIPE_END
G1 E-.47053 F4200
G1 Z.4 F720
G1 X128.062 Y103.447 F9000
G1 Z.2 F720
G1 E3.2 F2400
M204 P600
;WIDTH:0.517223
G1 F1200
G1 X128.088 Y103.777 E.01306
;WIDTH:0.468611
G1 X128.113 Y104.107 E.01172
;WIDTH:0.419999
G1 X128.113 Y106.883 E.08704
G1 X128.078 Y107.047 E.00525
G1 X127.912 Y107.113 E.00558
G1 X125.303 Y107.113 E.08183
;WIDTH:0.459868
G1 X125.069 Y107.093 E.00812
;WIDTH:0.499737
G1 X124.836 Y107.073 E.0089
;WIDTH:0.539606
G1 X124.602 Y107.053 E.00968
G1 X124.64 Y107.039 E.00167
;WIDTH:0.527495
G1 X124.884 Y106.958 E.01034
;WIDTH:0.491663
G1 X125.127 Y106.877 E.00958
;WIDTH:0.455831
G1 X125.371 Y106.796 E.00881
;WIDTH:0.419999
G1 X126.064 Y106.468 E.02406
G1 X126.602 Y106.085 E.0207
G1 X126.833 Y105.858 E.01015
G1 X127.205 Y105.452 E.01727
G1 X127.612 Y104.801 E.02405
G1 X127.887 Y104.085 E.02406
;WIDTH:0.468611
G1 X127.975 Y103.766 E.01172
;WIDTH:0.517223
G1 X128.046 Y103.505 E.01069
M204 P1000
G1 E-2.24 F4200
;WIPE_START
G1 F7200
G1 X128.088 Y103.777 E-.15257
G1 X128.113 Y104.107 E-.18346
G1 X128.113 Y105.146 E-.57596
;WIPE_END
G1 E-.048 F4200
G1 Z.4 F720
G1 X123.119 Y99.447 F9000
G1 Z.2 F720
G1 E3.2 F2400
M204 P600
;TYPE:External perimeter
;WIDTH:0.419999
G1 F1200
G1 X123.763 Y99.351 E.02043
G1 X124.501 Y99.374 E.02313
G1 X125.18 Y99.535 E.02189
G1 X125.815 Y99.821 E.02182
G1 X126.383 Y100.222 E.02182
G1 X126.866 Y100.723 E.02182
G1 X127.245 Y101.307 E.02182
G1 X127.507 Y101.952 E.02182
G1 X127.642 Y102.634 E.02182
G1 X127.645 Y103.33 E.02182
G1 X127.517 Y104.014 E.02182
G1 X127.261 Y104.661 E.02182
G1 X126.888 Y105.248 E.02182
G1 X126.41 Y105.754 E.02182
G1 X125.846 Y106.161 E.02182
G1 X125.214 Y106.453 E.02182
G1 X124.539 Y106.62 E.02182
G1 X123.844 Y106.657 E.02181
G1 X123.155 Y106.561 E.02182
G1 X122.496 Y106.337 E.02182
G1 X121.891 Y105.992 E.02182
G1 X121.363 Y105.539 E.02182
G1 X120.931 Y104.994 E.02182
G1 X120.609 Y104.377 E.02182
G1 X120.409 Y103.71 E.02182
G1 X120.34 Y103.018 E.02182
G1 X120.403 Y102.325 E.02182
G1 X120.595 Y101.656 E.02182
