; generated by PrusaSlicer 2.5.2+MacOS-arm64 on 2023-05-04 at 12:28:04 UTC


;
;

;
;
; 

; external perimeters extrusion width = 0.45mm
; perimeters extrusion width = 0.45mm
; infill extrusion width = 0.45mm
; solid infill extrusion width = 0.45mm
; top infill extrusion width = 0.40mm
; first layer extrusion width = 0.42mm

M73 P0 R57
M201 X2500 Y2500 Z400 E5000 ; sets maximum accelerations, mm/sec^2
M203 X180 Y180 Z12 E80 ; sets maximum feedrates, mm / sec
M204 P2000 R1250 T2500 ; sets acceleration (P, T) and retract acceleration (R), mm/sec^2
M205 X8.00 Y8.00 Z2.00 E10.00 ; sets the jerk limits, mm/sec
M205 S0 T0 ; sets the minimum extruding and travel feed rate, mm/sec
M107
;TYPE:Custom
M862.3 P "MINI" ; printer model check
G90 ; use absolute coordinates
M83 ; extruder relative mode
M104 S170 ; set extruder temp for bed leveling
M140 S60 ; set bed temp
M109 R170 ; wait for bed leveling temp
M190 S60 ; wait for bed temp
M204 T1250 ; set travel acceleration
G28 ; home all without mesh bed level
G29 ; mesh bed leveling 
M204 T2500 ; restore travel acceleration
M104 S215 ; set extruder temp
G92 E0
G1 Y-2 X179 F2400
G1 Z3 F720
M109 S215 ; wait for extruder temp

; intro line
G1 X170 F1000
G1 Z0.2 F720
G1 X110 E8 F900
G1 X40 E10 F700
G92 E0

M221 S95 ; set flow
G21 ; set units to millimeters
G90 ; use absolute coordinates
M83 ; use relative distances for extrusion
M900 K0.2 ; Filament gcode LA 1.5
; ; Filament gcode LA 1.0
M107
;LAYER_CHANGE
;Z:0.2
;HEIGHT:0.2
;BEFORE_LAYER_CHANGE
G92 E0.0
;0.2


G1 E-3.2 F4200
G1 Z.2 F720
;AFTER_LAYER_CHANGE
;0.2
G1 Z.4
G1 X26.192 Y26.825 F9000
G1 Z.2 F720
G1 E3.2 F2400
M204 P600
;TYPE:Skirt/Brim
;WIDTH:0.42
G1 F1200
G1 X27.241 Y25.86 E.04471
G1 X28.479 Y25.152 E.04471
G1 X29.844 Y24.738 E.04471
G1 X31 Y24.623 E.03643
G1 X149.266 Y24.638 E3.70815
G1 X150.675 Y24.856 E.04469
M73 P0 R56
G1 X152.001 Y25.384 E.04476
G1 X153.175 Y26.192 E.0447
G1 X153.808 Y26.826 E.02808
G1 X154.616 Y27.999 E.04466
G1 X154.848 Y28.479 E.01671
G1 X155.262 Y29.844 E.04475
G1 X155.377 Y31 E.03641
G1 X155.377 Y149 E3.69981
G1 X155.262 Y150.155 E.03641
G1 X154.848 Y151.521 E.04475
G1 X154.616 Y152.002 E.01674
G1 X153.808 Y153.175 E.04466
G1 X152.76 Y154.139 E.04464
G1 X151.521 Y154.848 E.04475
G1 X150.156 Y155.262 E.04474
G1 X149 Y155.377 E.03641
G1 X31 Y155.377 E3.69981
G1 X29.845 Y155.262 E.03641
M73 P1 R56
G1 X28.479 Y154.848 E.04475
G1 X27.999 Y154.616 E.01671
G1 X26.826 Y153.808 E.04466
G1 X25.86 Y152.759 E.0447
G1 X25.152 Y151.521 E.04473
G1 X24.738 Y150.156 E.04471
G1 X24.623 Y149 E.03643
G1 X24.623 Y31 E3.69981
G1 X24.738 Y29.844 E.03643
G1 X25.152 Y28.479 E.04471
G1 X25.86 Y27.241 E.04471
G1 X26.154 Y26.872 E.01481
M204 P1000
; printing object Frame 3x3.stl id:0 copy 0
G1 E-2.24 F4200
;WIPE_START
G1 F7200
G1 X27.241 Y25.86 E-.82306
G1 X27.381 Y25.78 E-.08894
;WIPE_END
G1 E-.048 F4200
G1 Z.4 F720
G1 X149.714 Y27.872 F9000
G1 Z.2 F720
G1 E3.2 F2400
M204 P600
;TYPE:Perimeter
;WIDTH:0.419999
G1 F1200
G1 X150.392 Y28.11 E.02254
G1 X151 Y28.492 E.02251
G1 X151.508 Y29 E.02252
G1 X151.89 Y29.608 E.02254
G1 X152.128 Y30.286 E.02252
G1 X152.213 Y31.044 E.02392
G1 X152.213 Y148.956 E3.69704
G1 X152.128 Y149.714 E.02391
G1 X151.89 Y150.392 E.02253
G1 X151.508 Y151 E.02252
G1 X151 Y151.508 E.02252
G1 X150.392 Y151.89 E.02252
G1 X149.714 Y152.128 E.02253
G1 X148.956 Y152.213 E.02391
G1 X31.044 Y152.213 E3.69704
G1 X30.286 Y152.128 E.02392
G1 X29.608 Y151.89 E.02252
G1 X29 Y151.508 E.02254
G1 X28.492 Y151 E.02252
G1 X28.11 Y150.392 E.02251
G1 X27.872 Y149.714 E.02254
G1 X27.787 Y148.956 E.02392
G1 X27.787 Y31.044 E3.69703
G1 X27.872 Y30.286 E.02392
G1 X28.11 Y29.608 E.02252
G1 X28.492 Y29 E.02252
G1 X29 Y28.492 E.02252
G1 X29.608 Y28.11 E.02252
G1 X30.286 Y27.872 E.02252
G1 X31.044 Y27.787 E.02392
G1 X148.964 Y27.788 E3.69728
G1 X149.654 Y27.866 E.02178
M204 P1000
G1 X149.797 Y27.502 F9000
M204 P600
;TYPE:External perimeter
G1 F1200
G1 X150.557 Y27.768 E.02523
G1 X151.237 Y28.195 E.02517
G1 X151.804 Y28.763 E.02518
G1 X152.232 Y29.444 E.0252
G1 X152.498 Y30.202 E.02518
G1 X152.59 Y31.023 E.02591
G1 X152.59 Y148.977 E3.69836
G1 X152.498 Y149.798 E.02591
M73 P2 R56
G1 X152.232 Y150.557 E.0252
G1 X151.805 Y151.237 E.02518
G1 X151.237 Y151.805 E.02518
G1 X150.557 Y152.232 E.02518
G1 X149.798 Y152.498 E.0252
G1 X148.977 Y152.59 E.02591
G1 X31.023 Y152.59 E3.69836
G1 X30.202 Y152.498 E.02591
G1 X29.444 Y152.232 E.02518
G1 X28.763 Y151.804 E.0252
G1 X28.195 Y151.237 E.02518
G1 X27.768 Y150.557 E.02517
G1 X27.503 Y149.798 E.0252
G1 X27.41 Y148.977 E.02591
G1 X27.41 Y31.023 E3.69836
G1 X27.503 Y30.202 E.02591
M73 P2 R55
G1 X27.768 Y29.443 E.02519
G1 X28.195 Y28.763 E.02519
G1 X28.763 Y28.195 E.02519
G1 X29.443 Y27.768 E.02519
G1 X30.202 Y27.503 E.02519
G1 X31.023 Y27.41 E.02591
G1 X148.985 Y27.411 E3.69861
G1 X149.738 Y27.496 E.02375
M204 P1000
G1 X149.915 Y27.885 F9000
G1 E-2.24 F4200
;WIPE_START
G1 F7200
G1 X150.557 Y27.768 E-.47839
G1 X151.219 Y28.184 E-.43361
;WIPE_END
G1 E-.048 F4200
G1 Z.4 F720
G1 X29.035 Y65.528 F9000
G1 Z.2 F720
G1 E3.2 F2400
M204 P600
;TYPE:Perimeter
G1 F1200
G1 X28.959 Y65.015 E.01627
G1 X28.959 Y30.985 E1.06695
G1 X29.04 Y30.431 E.01757
G1 X29.242 Y29.961 E.01606
G1 X29.556 Y29.556 E.01606
G1 X29.961 Y29.242 E.01606
G1 X30.431 Y29.04 E.01606
G1 X30.985 Y28.959 E.01757
G1 X65.015 Y28.959 E1.06695
G1 X65.599 Y29.051 E.01854
G1 X66.083 Y29.272 E.01669
G1 X66.493 Y29.611 E.01669
G1 X66.802 Y30.045 E.01669
G1 X66.987 Y30.544 E.01668
G1 X67.041 Y30.985 E.01395
G1 X67.041 Y65.015 E1.06696
G1 X66.972 Y65.531 E.01634
G1 X66.766 Y66.026 E.01681
G1 X66.444 Y66.444 E.01654
G1 X66.026 Y66.766 E.01654
G1 X65.531 Y66.972 E.01681
G1 X65.015 Y67.041 E.01634
G1 X30.985 Y67.041 E1.06696
G1 X30.465 Y66.971 E.01647
G1 X29.917 Y66.728 E.01879
G1 X29.507 Y66.389 E.01669
G1 X29.198 Y65.955 E.01669
G1 X29.056 Y65.584 E.01246
M204 P1000
G1 X29.375 Y65.314 F9000
M204 P600
;TYPE:External perimeter
G1 F1200
G1 X29.336 Y65.015 E.00945
G1 X29.336 Y30.985 E1.06695
G1 X29.399 Y30.546 E.01393
G1 X29.571 Y30.147 E.01362
G1 X29.841 Y29.806 E.01362
G1 X30.232 Y29.529 E.01502
G1 X30.593 Y29.386 E.01218
G1 X31.077 Y29.336 E.01526
G1 X65.015 Y29.336 E1.06408
G1 X65.454 Y29.399 E.01393
M73 P3 R55
G1 X65.853 Y29.571 E.01362
G1 X66.194 Y29.841 E.01362
G1 X66.453 Y30.189 E.01362
G1 X66.613 Y30.593 E.01362
G1 X66.664 Y30.985 E.0124
G1 X66.664 Y65.015 E1.06696
G1 X66.601 Y65.454 E.01393
G1 X66.429 Y65.853 E.01362
G1 X66.159 Y66.194 E.01362
G1 X65.811 Y66.453 E.01362
G1 X65.407 Y66.613 E.01362
G1 X65.015 Y66.664 E.0124
G1 X30.985 Y66.664 E1.06696
G1 X30.546 Y66.601 E.01393
G1 X30.147 Y66.429 E.01362
G1 X29.806 Y66.159 E.01362
G1 X29.547 Y65.811 E.01362
G1 X29.382 Y65.373 E.01466
M204 P1000
G1 X29.085 Y65.23 F9000
G1 E-2.24 F4200
;WIPE_START
G1 F7200
G1 X29.336 Y65.015 E-.20035
G1 X29.336 Y63.73 E-.71165
;WIPE_END
G1 E-.048 F4200
G1 Z.4 F720
G1 X72.472 Y29.035 F9000
G1 Z.2 F720
G1 E3.2 F2400
M204 P600
;TYPE:Perimeter
G1 F1200
G1 X72.985 Y28.959 E.01629
G1 X107.015 Y28.959 E1.06695
G1 X107.599 Y29.051 E.01854
G1 X108.083 Y29.272 E.01669
G1 X108.493 Y29.611 E.01669
G1 X108.802 Y30.045 E.01668
G1 X108.987 Y30.544 E.01669
G1 X109.041 Y30.985 E.01395
G1 X109.041 Y65.015 E1.06695
G1 X108.972 Y65.531 E.01634
G1 X108.766 Y66.026 E.01681
G1 X108.444 Y66.444 E.01654
G1 X108.026 Y66.766 E.01654
G1 X107.531 Y66.972 E.01681
G1 X107.015 Y67.041 E.01634
G1 X72.985 Y67.041 E1.06696
G1 X72.469 Y66.972 E.01634
G1 X71.974 Y66.766 E.01681
G1 X71.556 Y66.444 E.01654
G1 X71.234 Y66.026 E.01654
G1 X71.028 Y65.531 E.01681
G1 X70.959 Y65.015 E.01634
G1 X70.959 Y30.985 E1.06696
G1 X71.029 Y30.465 E.01647
G1 X71.272 Y29.917 E.01879
G1 X71.611 Y29.507 E.01669
G1 X72.045 Y29.198 E.01669
G1 X72.415 Y29.056 E.01244
M204 P1000
G1 X72.735 Y29.368 F9000
M204 P600
;TYPE:External perimeter
G1 F1200
G1 X72.985 Y29.336 E.00791
G1 X107.015 Y29.336 E1.06695
G1 X107.454 Y29.399 E.01393
G1 X107.853 Y29.571 E.01362
G1 X108.194 Y29.841 E.01362
G1 X108.453 Y30.189 E.01362
G1 X108.614 Y30.593 E.01362
G1 X108.664 Y30.985 E.0124
G1 X108.664 Y65.015 E1.06695
G1 X108.601 Y65.454 E.01393
G1 X108.429 Y65.853 E.01362
G1 X108.159 Y66.194 E.01362
G1 X107.811 Y66.453 E.01362
G1 X107.407 Y66.613 E.01362
G1 X107.015 Y66.664 E.0124
G1 X72.985 Y66.664 E1.06696
G1 X72.546 Y66.601 E.01393
G1 X72.147 Y66.429 E.01362
G1 X71.806 Y66.159 E.01362
G1 X71.547 Y65.811 E.01362
G1 X71.387 Y65.407 E.01362
G1 X71.336 Y65.015 E.0124
G1 X71.336 Y30.985 E1.06696
G1 X71.399 Y30.546 E.01393
G1 X71.571 Y30.147 E.01362
G1 X71.841 Y29.806 E.01362
G1 X72.189 Y29.547 E.01362
G1 X72.593 Y29.386 E.01362
G1 X72.676 Y29.376 E.00261
M204 P1000
G1 X72.818 Y29.13 F9000
G1 E-2.24 F4200
;WIPE_START
G1 F7200
G1 X72.985 Y29.336 E-.17304
G1 X74.319 Y29.336 E-.73896
;WIPE_END
G1 E-.048 F4200
G1 Z.4 F720
G1 X150.961 Y65.525 F9000
G1 Z.2 F720
G1 E3.2 F2400
M204 P600
;TYPE:Perimeter
G1 F1200
G1 X150.949 Y65.598 E.00233
G1 X150.728 Y66.082 E.01668
G1 X150.389 Y66.493 E.0167
G1 X149.955 Y66.802 E.01669
G1 X149.457 Y66.987 E.01668
G1 X149.015 Y67.041 E.01396
G1 X114.985 Y67.041 E1.06696
G1 X114.469 Y66.972 E.01634
G1 X113.974 Y66.766 E.01681
G1 X113.556 Y66.444 E.01654
G1 X113.234 Y66.026 E.01654
G1 X113.028 Y65.531 E.01681
G1 X112.959 Y65.015 E.01634
G1 X112.959 Y30.985 E1.06695
G1 X113.029 Y30.465 E.01647
G1 X113.272 Y29.917 E.01879
G1 X113.611 Y29.507 E.01669
G1 X114.045 Y29.198 E.01669
G1 X114.52 Y29.016 E.01595
G1 X114.985 Y28.959 E.0147
G1 X149.014 Y28.959 E1.06695
G1 X149.569 Y29.039 E.01758
G1 X150.04 Y29.242 E.01606
G1 X150.445 Y29.556 E.01606
G1 X150.758 Y29.961 E.01604
G1 X150.96 Y30.431 E.01605
G1 X151.041 Y30.985 E.01758
G1 X151.041 Y65.015 E1.06696
G1 X150.97 Y65.466 E.01432
M204 P1000
G1 X150.571 Y65.522 F9000
M204 P600
;TYPE:External perimeter
G1 F1200
G1 X150.429 Y65.853 E.0113
G1 X150.159 Y66.194 E.01362
G1 X149.811 Y66.453 E.01362
G1 X149.407 Y66.613 E.01361
G1 X149.015 Y66.664 E.01242
G1 X114.985 Y66.664 E1.06696
G1 X114.546 Y66.601 E.01393
G1 X114.147 Y66.429 E.01362
G1 X113.806 Y66.159 E.01362
G1 X113.547 Y65.811 E.01362
G1 X113.386 Y65.407 E.01362
G1 X113.336 Y65.015 E.0124
G1 X113.336 Y30.985 E1.06695
G1 X113.399 Y30.546 E.01393
G1 X113.571 Y30.147 E.01362
G1 X113.841 Y29.806 E.01362
G1 X114.189 Y29.547 E.01362
G1 X114.593 Y29.386 E.01362
G1 X114.985 Y29.336 E.0124
G1 X149.014 Y29.336 E1.06695
G1 X149.455 Y29.399 E.01395
M73 P4 R55
G1 X149.853 Y29.571 E.01361
G1 X150.194 Y29.841 E.01363
G1 X150.471 Y30.232 E.01501
G1 X150.613 Y30.593 E.01216
G1 X150.664 Y31.077 E.01527
G1 X150.664 Y65.015 E1.0641
G1 X150.595 Y65.467 E.01434
M204 P1000
G1 X150.824 Y65.78 F9000
G1 E-2.24 F4200
;WIPE_START
G1 F7200
G1 X150.429 Y65.853 E-.23298
G1 X150.159 Y66.194 E-.2407
G1 X149.811 Y66.453 E-.24074
G1 X149.479 Y66.585 E-.19757
;WIPE_END
G1 E-.048 F4200
G1 Z.4 F720
G1 X150.962 Y72.475 F9000
G1 Z.2 F720
G1 E3.2 F2400
M204 P600
;TYPE:Perimeter
G1 F1200
G1 X150.987 Y72.543 E.00226
G1 X151.041 Y72.985 E.01398
G1 X151.041 Y107.015 E1.06696
G1 X150.949 Y107.598 E.01853
M73 P4 R54
G1 X150.728 Y108.082 E.01668
G1 X150.389 Y108.493 E.0167
G1 X149.955 Y108.801 E.01668
G1 X149.456 Y108.987 E.0167
G1 X149.014 Y109.041 E.01396
G1 X114.985 Y109.041 E1.06695
G1 X114.469 Y108.972 E.01634
G1 X113.974 Y108.766 E.01681
G1 X113.556 Y108.444 E.01654
G1 X113.234 Y108.026 E.01654
G1 X113.028 Y107.531 E.01681
G1 X112.959 Y107.015 E.01634
G1 X112.959 Y72.985 E1.06695
G1 X113.028 Y72.469 E.01634
G1 X113.234 Y71.974 E.01681
G1 X113.556 Y71.556 E.01654
G1 X113.974 Y71.234 E.01654
G1 X114.469 Y71.028 E.01681
G1 X114.985 Y70.959 E.01634
G1 X149.015 Y70.959 E1.06696
G1 X149.536 Y71.029 E.01648
G1 X150.083 Y71.272 E.01878
G1 X150.494 Y71.612 E.01671
G1 X150.802 Y72.045 E.01668
G1 X150.941 Y72.419 E.01249
M204 P1000
G1 X150.627 Y72.696 F9000
M204 P600
;TYPE:External perimeter
G1 F1200
G1 X150.664 Y72.985 E.00915
G1 X150.664 Y107.015 E1.06696
G1 X150.601 Y107.454 E.01392
G1 X150.429 Y107.853 E.01362
G1 X150.159 Y108.194 E.01362
G1 X149.811 Y108.453 E.01362
G1 X149.407 Y108.614 E.01362
G1 X149.014 Y108.664 E.01241
G1 X114.985 Y108.664 E1.06695
G1 X114.546 Y108.601 E.01393
G1 X114.147 Y108.429 E.01362
G1 X113.806 Y108.159 E.01362
G1 X113.547 Y107.811 E.01362
G1 X113.386 Y107.407 E.01362
G1 X113.336 Y107.015 E.0124
G1 X113.336 Y72.985 E1.06695
G1 X113.399 Y72.546 E.01393
G1 X113.571 Y72.147 E.01362
G1 X113.841 Y71.806 E.01362
G1 X114.189 Y71.547 E.01362
G1 X114.593 Y71.387 E.01362
G1 X114.985 Y71.336 E.0124
G1 X149.015 Y71.336 E1.06696
G1 X149.455 Y71.399 E.01395
G1 X149.853 Y71.571 E.01361
G1 X150.194 Y71.841 E.01363
G1 X150.453 Y72.19 E.01362
G1 X150.619 Y72.637 E.01495
M204 P1000
G1 X150.907 Y72.777 F9000
G1 E-2.24 F4200
;WIPE_START
G1 F7200
G1 X150.664 Y72.985 E-.19495
G1 X150.664 Y74.279 E-.71705
;WIPE_END
G1 E-.048 F4200
G1 Z.4 F720
G1 X151.036 Y114.943 F9000
G1 Z.2 F720
G1 E3.2 F2400
M204 P600
;TYPE:Perimeter
G1 F1200
G1 X151.041 Y149.015 E1.06829
G1 X150.96 Y149.569 E.01757
G1 X150.758 Y150.04 E.01606
G1 X150.445 Y150.445 E.01605
G1 X150.04 Y150.758 E.01605
G1 X149.57 Y150.96 E.01605
G1 X149.015 Y151.041 E.01759
G1 X114.985 Y151.041 E1.06696
G1 X114.402 Y150.949 E.01853
G1 X113.918 Y150.728 E.01668
G1 X113.507 Y150.389 E.0167
G1 X113.199 Y149.955 E.01668
G1 X113.013 Y149.456 E.0167
G1 X112.959 Y149.014 E.01396
G1 X112.959 Y114.985 E1.06695
G1 X113.028 Y114.469 E.01634
G1 X113.234 Y113.974 E.01681
G1 X113.556 Y113.556 E.01654
G1 X113.974 Y113.234 E.01654
G1 X114.469 Y113.028 E.01681
G1 X114.985 Y112.959 E.01634
G1 X149.014 Y112.959 E1.06695
G1 X149.536 Y113.029 E.01649
G1 X150.083 Y113.272 E.01878
G1 X150.494 Y113.612 E.01671
G1 X150.802 Y114.045 E.01668
G1 X150.987 Y114.543 E.01664
G1 X151.029 Y114.884 E.01077
M204 P1000
G1 X150.664 Y115.388 F9000
M204 P600
;TYPE:External perimeter
G1 F1200
G1 X150.664 Y149.015 E1.05433
G1 X150.601 Y149.455 E.01394
G1 X150.429 Y149.853 E.01361
G1 X150.159 Y150.194 E.01363
G1 X149.768 Y150.471 E.01501
G1 X149.408 Y150.613 E.01216
G1 X148.923 Y150.664 E.01528
G1 X114.985 Y150.664 E1.0641
G1 X114.546 Y150.601 E.01392
G1 X114.147 Y150.429 E.01362
G1 X113.806 Y150.159 E.01362
G1 X113.547 Y149.811 E.01362
G1 X113.386 Y149.407 E.01362
G1 X113.336 Y149.014 E.01241
G1 X113.336 Y114.985 E1.06695
G1 X113.399 Y114.546 E.01393
G1 X113.571 Y114.147 E.01362
G1 X113.841 Y113.806 E.01362
G1 X114.189 Y113.547 E.01362
G1 X114.593 Y113.386 E.01362
G1 X114.985 Y113.336 E.0124
G1 X149.014 Y113.336 E1.06695
G1 X149.455 Y113.399 E.01395
G1 X149.853 Y113.571 E.01361
G1 X150.194 Y113.841 E.01363
G1 X150.453 Y114.19 E.01362
G1 X150.613 Y114.593 E.0136
G1 X150.664 Y114.985 E.01242
G1 X150.664 Y115.328 E.01075
M204 P1000
G1 X151.015 Y115.581 F9000
G1 E-2.24 F4200
;WIPE_START
G1 F7200
G1 X150.664 Y116.974 E-.912
;WIPE_END
G1 E-.048 F4200
G1 Z.4 F720
G1 X107.057 Y151.036 F9000
G1 Z.2 F720
G1 E3.2 F2400
M204 P600
;TYPE:Perimeter
G1 F1200
G1 X72.985 Y151.041 E1.06831
G1 X72.402 Y150.949 E.01853
M73 P5 R54
G1 X71.918 Y150.728 E.01668
G1 X71.507 Y150.389 E.0167
G1 X71.198 Y149.955 E.01669
G1 X71.013 Y149.457 E.01668
G1 X70.959 Y149.015 E.01396
G1 X70.959 Y114.985 E1.06696
G1 X71.028 Y114.469 E.01634
G1 X71.234 Y113.974 E.01681
G1 X71.556 Y113.556 E.01654
G1 X71.974 Y113.234 E.01654
G1 X72.469 Y113.028 E.01681
G1 X72.985 Y112.959 E.01634
G1 X107.015 Y112.959 E1.06695
G1 X107.531 Y113.028 E.01634
G1 X108.026 Y113.234 E.01681
G1 X108.444 Y113.556 E.01654
G1 X108.766 Y113.974 E.01654
G1 X108.972 Y114.469 E.01681
G1 X109.041 Y114.985 E.01634
G1 X109.041 Y149.014 E1.06695
G1 X108.971 Y149.536 E.01649
G1 X108.728 Y150.083 E.01878
G1 X108.388 Y150.494 E.01671
G1 X107.955 Y150.802 E.01668
G1 X107.48 Y150.983 E.01593
G1 X107.117 Y151.028 E.01148
M204 P1000
G1 X106.616 Y150.664 F9000
M204 P600
;TYPE:External perimeter
G1 F1200
G1 X72.985 Y150.664 E1.05445
G1 X72.546 Y150.601 E.01392
G1 X72.147 Y150.429 E.01362
G1 X71.806 Y150.159 E.01362
G1 X71.547 Y149.811 E.01362
G1 X71.387 Y149.407 E.01361
G1 X71.336 Y149.015 E.01242
G1 X71.336 Y114.985 E1.06696
G1 X71.399 Y114.546 E.01393
G1 X71.571 Y114.147 E.01362
G1 X71.841 Y113.806 E.01362
