; generated by PrusaSlicer 2.5.2+MacOS-arm64 on 2023-04-21 at 14:39:32 UTC


;
;

;
;
; 

; external perimeters extrusion width = 0.45mm
; perimeters extrusion width = 0.45mm
; infill extrusion width = 0.45mm
; solid infill extrusion width = 0.45mm
; top infill extrusion width = 0.40mm
; first layer extrusion width = 0.42mm

M73 P0 R26
M201 X2500 Y2500 Z400 E5000 ; sets maximum accelerations, mm/sec^2
M203 X180 Y180 Z12 E80 ; sets maximum feedrates, mm / sec
M204 P2000 R1250 T2500 ; sets acceleration (P, T) and retract acceleration (R), mm/sec^2
M205 X8.00 Y8.00 Z2.00 E10.00 ; sets the jerk limits, mm/sec
M205 S0 T0 ; sets the minimum extruding and travel feed rate, mm/sec
M107
;TYPE:Custom
M862.3 P "MINI" ; printer model check
G90 ; use absolute coordinates
M83 ; extruder relative mode
M104 S170 ; set extruder temp for bed leveling
M140 S60 ; set bed temp
M109 R170 ; wait for bed leveling temp
M190 S60 ; wait for bed temp
M204 T1250 ; set travel acceleration
G28 ; home all without mesh bed level
G29 ; mesh bed leveling 
M204 T2500 ; restore travel acceleration
M104 S215 ; set extruder temp
G92 E0
G1 Y-2 X179 F2400
G1 Z3 F720
M109 S215 ; wait for extruder temp

; intro line
G1 X170 F1000
G1 Z0.2 F720
G1 X110 E8 F900
G1 X40 E10 F700
G92 E0

M221 S95 ; set flow
G21 ; set units to millimeters
G90 ; use absolute coordinates
M83 ; use relative distances for extrusion
M900 K0.2 ; Filament gcode LA 1.5
; ; Filament gcode LA 1.0
M107
;LAYER_CHANGE
;Z:0.2
;HEIGHT:0.2
;BEFORE_LAYER_CHANGE
G92 E0.0
;0.2


G1 E-3.2 F4200
G1 Z.2 F720
;AFTER_LAYER_CHANGE
;0.2
G1 Z.4
G1 X47.501 Y47.501 F9000
G1 Z.2 F720
M73 P1 R26
G1 E3.2 F2400
M204 P600
;TYPE:Skirt/Brim
;WIDTH:0.42
G1 F1200
G1 X47.748 Y47.255 E.01093
G1 X48.597 Y46.617 E.03329
G1 X49.627 Y46.087 E.03634
G1 X50.69 Y45.765 E.03482
G1 X52 Y45.623 E.04131
G1 X128.207 Y45.632 E2.38942
G1 X129.31 Y45.765 E.03482
G1 X130.373 Y46.087 E.03482
G1 X131.363 Y46.589 E.03482
G1 X132.252 Y47.255 E.03483
G1 X133.011 Y48.065 E.03482
G1 X133.411 Y48.637 E.02186
G1 X133.907 Y49.614 E.03435
G1 X134.235 Y50.69 E.0353
G1 X134.368 Y51.793 E.03481
G1 X134.377 Y128 E2.38943
G1 X134.235 Y129.31 E.0413
G1 X133.913 Y130.373 E.03483
G1 X133.411 Y131.363 E.03481
G1 X132.745 Y132.252 E.03483
G1 X131.935 Y133.011 E.03483
G1 X131.005 Y133.618 E.03482
G1 X130.373 Y133.913 E.02186
G1 X129.31 Y134.235 E.03483
G1 X128 Y134.377 E.0413
G1 X52 Y134.377 E2.38293
G1 X50.69 Y134.235 E.0413
G1 X49.627 Y133.913 E.03483
G1 X48.637 Y133.411 E.03482
G1 X47.748 Y132.745 E.03482
G1 X46.989 Y131.935 E.03483
G1 X46.589 Y131.363 E.02186
G1 X46.087 Y130.373 E.03482
G1 X45.765 Y129.31 E.03482
G1 X45.623 Y128 E.04131
G1 X45.623 Y52 E2.38293
G1 X45.765 Y50.69 E.04131
M73 P2 R26
G1 X46.087 Y49.627 E.03482
G1 X46.589 Y48.637 E.03482
G1 X47.255 Y47.748 E.03482
G1 X47.459 Y47.544 E.00905
M204 P1000
; printing object Frame 2x2.stl id:0 copy 0
G1 E-2.24 F4200
;WIPE_START
G1 F7200
G1 X47.748 Y47.255 E-.22644
G1 X48.597 Y46.617 E-.58846
G1 X48.752 Y46.537 E-.0971
;WIPE_END
G1 E-.048 F4200
G1 Z.4 F720
G1 X131.016 Y129.098 F9000
G1 Z.2 F720
G1 E3.2 F2400
M204 P600
;TYPE:Perimeter
;WIDTH:0.419999
G1 F1200
G1 X130.78 Y129.605 E.01754
G1 X130.459 Y130.063 E.01754
M73 P2 R25
G1 X130.063 Y130.459 E.01754
G1 X129.605 Y130.78 E.01754
G1 X129.098 Y131.016 E.01754
G1 X128.557 Y131.161 E.01754
G1 X127.966 Y131.213 E.01863
G1 X52.034 Y131.213 E2.38077
G1 X51.443 Y131.161 E.01863
G1 X50.902 Y131.016 E.01754
G1 X50.395 Y130.78 E.01754
G1 X49.937 Y130.459 E.01754
G1 X49.541 Y130.063 E.01754
G1 X49.22 Y129.605 E.01754
G1 X48.984 Y129.098 E.01754
G1 X48.839 Y128.557 E.01754
G1 X48.787 Y127.966 E.01862
G1 X48.787 Y52.034 E2.38077
G1 X48.839 Y51.443 E.01862
G1 X48.984 Y50.902 E.01754
G1 X49.22 Y50.395 E.01754
G1 X49.541 Y49.937 E.01754
G1 X49.937 Y49.541 E.01754
G1 X50.395 Y49.22 E.01754
G1 X50.902 Y48.984 E.01754
G1 X51.443 Y48.839 E.01754
G1 X52.034 Y48.787 E.01862
G1 X127.972 Y48.788 E2.38096
G1 X128.557 Y48.839 E.01843
G1 X129.098 Y48.984 E.01754
G1 X129.605 Y49.22 E.01754
G1 X130.063 Y49.541 E.01754
G1 X130.459 Y49.937 E.01754
G1 X130.78 Y50.395 E.01754
G1 X131.016 Y50.902 E.01754
G1 X131.161 Y51.443 E.01754
G1 X131.213 Y52.034 E.01863
G1 X131.213 Y127.966 E2.38077
G1 X131.161 Y128.557 E.01863
M73 P3 R25
G1 X131.032 Y129.04 E.01566
M204 P1000
G1 X131.372 Y129.227 F9000
M204 P600
;TYPE:External perimeter
G1 F1200
G1 X131.108 Y129.794 E.01961
G1 X130.749 Y130.307 E.01961
G1 X130.307 Y130.749 E.01961
G1 X129.794 Y131.108 E.01961
G1 X129.227 Y131.372 E.01961
G1 X128.623 Y131.534 E.01961
G1 X127.982 Y131.59 E.02018
G1 X52.018 Y131.59 E2.3818
G1 X51.377 Y131.534 E.02018
G1 X50.773 Y131.372 E.01961
G1 X50.206 Y131.108 E.01961
G1 X49.693 Y130.749 E.01961
G1 X49.251 Y130.307 E.01961
G1 X48.892 Y129.794 E.01961
G1 X48.628 Y129.227 E.01961
G1 X48.466 Y128.623 E.01961
G1 X48.41 Y127.982 E.02018
G1 X48.41 Y52.018 E2.3818
G1 X48.466 Y51.377 E.02018
G1 X48.628 Y50.773 E.01961
G1 X48.892 Y50.206 E.01961
G1 X49.251 Y49.693 E.01961
G1 X49.693 Y49.251 E.01961
G1 X50.206 Y48.892 E.01961
G1 X50.773 Y48.628 E.01961
G1 X51.377 Y48.466 E.01961
G1 X52.018 Y48.41 E.02017
G1 X127.988 Y48.411 E2.382
G1 X128.623 Y48.466 E.01998
G1 X129.227 Y48.628 E.01961
G1 X129.794 Y48.892 E.01961
G1 X130.307 Y49.251 E.01961
G1 X130.749 Y49.693 E.01961
G1 X131.108 Y50.206 E.01961
G1 X131.372 Y50.773 E.01961
G1 X131.534 Y51.377 E.01961
G1 X131.59 Y52.018 E.02018
G1 X131.59 Y127.982 E2.3818
G1 X131.534 Y128.623 E.02018
M73 P4 R25
G1 X131.388 Y129.169 E.01773
M204 P1000
G1 X130.978 Y129.297 F9000
G1 E-2.24 F4200
;WIPE_START
G1 F7200
G1 X131.108 Y129.794 E-.37942
G1 X130.749 Y130.307 E-.34666
G1 X130.512 Y130.544 E-.18592
;WIPE_END
G1 E-.048 F4200
G1 Z.4 F720
G1 X50.56 Y87.432 F9000
G1 Z.2 F720
G1 E3.2 F2400
M204 P600
;TYPE:Perimeter
G1 F1200
G1 X50.507 Y87.389 E.00214
G1 X50.198 Y86.955 E.01669
G1 X50.016 Y86.48 E.01595
G1 X49.959 Y86.015 E.0147
G1 X49.959 Y51.985 E1.06695
G1 X50.027 Y51.471 E.01626
G1 X50.231 Y50.979 E.01672
G1 X50.556 Y50.556 E.01672
G1 X50.979 Y50.231 E.01672
G1 X51.471 Y50.027 E.01672
G1 X51.985 Y49.959 E.01626
G1 X86.015 Y49.959 E1.06695
G1 X86.599 Y50.051 E.01854
G1 X87.083 Y50.272 E.01669
G1 X87.493 Y50.611 E.01669
G1 X87.802 Y51.045 E.01669
G1 X87.987 Y51.544 E.01668
G1 X88.041 Y51.985 E.01395
G1 X88.041 Y86.015 E1.06696
G1 X87.972 Y86.531 E.01634
G1 X87.766 Y87.026 E.01681
G1 X87.444 Y87.444 E.01654
G1 X87.026 Y87.766 E.01654
G1 X86.531 Y87.972 E.01681
G1 X86.015 Y88.041 E.01634
G1 X51.985 Y88.041 E1.06696
G1 X51.465 Y87.971 E.01647
G1 X50.917 Y87.728 E.01879
G1 X50.606 Y87.47 E.01267
M204 P1000
G1 X51.718 Y87.625 F9000
M204 P600
;TYPE:External perimeter
G1 F1200
G1 X51.546 Y87.601 E.00545
G1 X51.147 Y87.429 E.01362
G1 X50.806 Y87.159 E.01362
G1 X50.547 Y86.811 E.01362
G1 X50.386 Y86.407 E.01362
G1 X50.336 Y86.015 E.0124
G1 X50.336 Y51.985 E1.06695
G1 X50.429 Y51.473 E.01633
G1 X50.571 Y51.147 E.01116
G1 X50.903 Y50.758 E.01602
G1 X51.189 Y50.547 E.01116
G1 X51.671 Y50.376 E.01602
G1 X52.06 Y50.336 E.01226
G1 X86.015 Y50.336 E1.06462
G1 X86.454 Y50.399 E.01393
G1 X86.853 Y50.571 E.01362
G1 X87.194 Y50.841 E.01362
G1 X87.453 Y51.189 E.01362
G1 X87.613 Y51.593 E.01362
G1 X87.664 Y51.985 E.0124
G1 X87.664 Y86.015 E1.06696
G1 X87.601 Y86.454 E.01393
M73 P5 R25
G1 X87.429 Y86.853 E.01362
G1 X87.159 Y87.194 E.01362
G1 X86.811 Y87.453 E.01362
G1 X86.407 Y87.613 E.01362
G1 X86.015 Y87.664 E.0124
G1 X51.985 Y87.664 E1.06696
G1 X51.777 Y87.634 E.0066
M204 P1000
G1 X51.617 Y87.767 F9000
G1 E-2.24 F4200
;WIPE_START
G1 F7200
G1 X51.546 Y87.601 E-.12964
G1 X51.147 Y87.429 E-.24073
G1 X50.806 Y87.159 E-.24071
G1 X50.547 Y86.811 E-.24072
G1 X50.507 Y86.71 E-.0602
;WIPE_END
G1 E-.048 F4200
G1 Z.4 F720
G1 X130.032 Y86.067 F9000
G1 Z.2 F720
G1 E3.2 F2400
M204 P600
;TYPE:Perimeter
G1 F1200
G1 X129.949 Y86.599 E.01687
G1 X129.728 Y87.083 E.01669
G1 X129.389 Y87.493 E.01669
G1 X128.955 Y87.802 E.01669
G1 X128.456 Y87.987 E.01668
G1 X128.015 Y88.041 E.01395
G1 X93.985 Y88.041 E1.06696
G1 X93.469 Y87.972 E.01634
G1 X92.974 Y87.766 E.01681
G1 X92.556 Y87.444 E.01654
G1 X92.234 Y87.026 E.01654
G1 X92.028 Y86.531 E.01681
G1 X91.959 Y86.015 E.01634
G1 X91.959 Y51.985 E1.06696
G1 X92.029 Y51.465 E.01647
G1 X92.272 Y50.917 E.01879
G1 X92.611 Y50.507 E.01669
G1 X93.045 Y50.198 E.01669
G1 X93.52 Y50.016 E.01595
G1 X93.985 Y49.959 E.0147
G1 X128.015 Y49.959 E1.06695
G1 X128.529 Y50.027 E.01626
G1 X129.021 Y50.231 E.01672
G1 X129.444 Y50.556 E.01672
G1 X129.769 Y50.979 E.01672
G1 X129.973 Y51.471 E.01672
G1 X130.041 Y51.985 E.01626
G1 X130.041 Y86.008 E1.06674
M204 P1000
G1 X129.664 Y85.594 F9000
M204 P600
;TYPE:External perimeter
G1 F1200
G1 X129.664 Y86.015 E.01319
G1 X129.601 Y86.454 E.01393
G1 X129.429 Y86.853 E.01362
G1 X129.159 Y87.194 E.01362
G1 X128.811 Y87.453 E.01362
G1 X128.407 Y87.613 E.01362
G1 X128.015 Y87.664 E.0124
G1 X93.985 Y87.664 E1.06696
G1 X93.546 Y87.601 E.01393
G1 X93.147 Y87.429 E.01362
G1 X92.806 Y87.159 E.01362
G1 X92.547 Y86.811 E.01362
G1 X92.387 Y86.407 E.01362
G1 X92.336 Y86.015 E.0124
G1 X92.336 Y51.985 E1.06696
G1 X92.399 Y51.546 E.01393
M73 P5 R24
G1 X92.571 Y51.147 E.01362
G1 X92.841 Y50.806 E.01362
G1 X93.189 Y50.547 E.01362
G1 X93.593 Y50.386 E.01362
G1 X93.985 Y50.336 E.0124
G1 X128.015 Y50.336 E1.06695
G1 X128.527 Y50.429 E.01633
M73 P6 R24
G1 X128.853 Y50.571 E.01116
G1 X129.242 Y50.903 E.01601
G1 X129.453 Y51.189 E.01116
G1 X129.624 Y51.671 E.01602
G1 X129.664 Y52.06 E.01226
G1 X129.664 Y85.534 E1.04955
M204 P1000
G1 X130.01 Y85.794 F9000
G1 E-2.24 F4200
;WIPE_START
G1 F7200
G1 X129.664 Y86.015 E-.26636
G1 X129.601 Y86.454 E-.24629
G1 X129.429 Y86.853 E-.24072
G1 X129.251 Y87.078 E-.15863
;WIPE_END
G1 E-.048 F4200
G1 Z.4 F720
G1 X92.56 Y129.433 F9000
G1 Z.2 F720
G1 E3.2 F2400
M204 P600
;TYPE:Perimeter
G1 F1200
G1 X92.507 Y129.389 E.00217
G1 X92.198 Y128.955 E.01669
G1 X92.013 Y128.456 E.01668
G1 X91.959 Y128.015 E.01395
G1 X91.959 Y93.985 E1.06696
G1 X92.028 Y93.469 E.01634
G1 X92.234 Y92.974 E.01681
G1 X92.556 Y92.556 E.01654
G1 X92.974 Y92.234 E.01654
G1 X93.469 Y92.028 E.01681
G1 X93.985 Y91.959 E.01634
G1 X128.015 Y91.959 E1.06696
G1 X128.535 Y92.029 E.01647
G1 X129.083 Y92.272 E.01878
G1 X129.493 Y92.611 E.01669
G1 X129.802 Y93.045 E.01668
G1 X129.987 Y93.544 E.01669
G1 X130.041 Y93.985 E.01395
G1 X130.041 Y128.015 E1.06695
G1 X129.973 Y128.529 E.01626
G1 X129.769 Y129.021 E.01672
G1 X129.444 Y129.444 E.01672
G1 X129.021 Y129.769 E.01672
G1 X128.529 Y129.973 E.01672
G1 X128.015 Y130.041 E.01626
G1 X93.985 Y130.041 E1.06695
G1 X93.401 Y129.949 E.01855
G1 X92.917 Y129.728 E.01669
G1 X92.606 Y129.471 E.01264
M204 P1000
G1 X93.627 Y129.612 F9000
M204 P600
;TYPE:External perimeter
G1 F1200
G1 X93.546 Y129.601 E.00259
G1 X93.147 Y129.429 E.01362
G1 X92.806 Y129.159 E.01362
G1 X92.547 Y128.811 E.01362
G1 X92.387 Y128.407 E.01362
G1 X92.336 Y128.015 E.0124
G1 X92.336 Y93.985 E1.06696
G1 X92.399 Y93.546 E.01393
G1 X92.571 Y93.147 E.01362
G1 X92.841 Y92.806 E.01362
G1 X93.189 Y92.547 E.01362
G1 X93.593 Y92.387 E.01362
G1 X93.985 Y92.336 E.0124
G1 X128.015 Y92.336 E1.06696
G1 X128.454 Y92.399 E.01393
G1 X128.853 Y92.571 E.01362
G1 X129.194 Y92.841 E.01362
G1 X129.453 Y93.189 E.01362
G1 X129.614 Y93.593 E.01362
G1 X129.664 Y93.985 E.0124
G1 X129.664 Y128.015 E1.06695
G1 X129.571 Y128.527 E.01632
M73 P7 R24
G1 X129.429 Y128.853 E.01117
G1 X129.097 Y129.242 E.01601
G1 X128.811 Y129.453 E.01116
G1 X128.329 Y129.624 E.01602
G1 X127.94 Y129.664 E.01226
G1 X93.985 Y129.664 E1.06462
G1 X93.687 Y129.621 E.00946
M204 P1000
G1 X93.579 Y129.68 F9000
G1 E-2.24 F4200
;WIPE_START
G1 F7200
G1 X93.546 Y129.601 E-.07903
G1 X93.147 Y129.429 E-.24072
G1 X92.806 Y129.159 E-.24071
G1 X92.547 Y128.811 E-.24073
G1 X92.473 Y128.625 E-.11082
;WIPE_END
G1 E-.048 F4200
G1 Z.4 F720
G1 X86.528 Y129.965 F9000
G1 Z.2 F720
G1 E3.2 F2400
M204 P600
;TYPE:Perimeter
G1 F1200
G1 X86.015 Y130.041 E.01628
G1 X51.985 Y130.041 E1.06695
G1 X51.471 Y129.973 E.01626
G1 X50.979 Y129.769 E.01672
G1 X50.556 Y129.444 E.01672
G1 X50.231 Y129.021 E.01672
G1 X50.027 Y128.529 E.01672
G1 X49.959 Y128.015 E.01626
G1 X49.959 Y93.985 E1.06695
G1 X50.051 Y93.401 E.01854
G1 X50.272 Y92.917 E.01669
G1 X50.611 Y92.507 E.01669
G1 X51.045 Y92.198 E.01669
G1 X51.544 Y92.013 E.01668
G1 X51.985 Y91.959 E.01395
G1 X86.015 Y91.959 E1.06696
G1 X86.531 Y92.028 E.01634
G1 X87.026 Y92.234 E.01681
G1 X87.444 Y92.556 E.01654
G1 X87.766 Y92.974 E.01654
G1 X87.972 Y93.469 E.01681
G1 X88.041 Y93.985 E.01634
G1 X88.041 Y128.015 E1.06696
G1 X87.971 Y128.535 E.01647
G1 X87.728 Y129.083 E.01878
G1 X87.389 Y129.493 E.01669
G1 X86.955 Y129.802 E.01668
G1 X86.584 Y129.944 E.01245
M204 P1000
G1 X86.323 Y129.624 F9000
M204 P600
;TYPE:External perimeter
G1 F1200
G1 X86.015 Y129.664 E.00975
G1 X51.985 Y129.664 E1.06695
G1 X51.473 Y129.571 E.01632
G1 X51.147 Y129.429 E.01117
G1 X50.758 Y129.097 E.01602
G1 X50.547 Y128.811 E.01116
G1 X50.376 Y128.329 E.01602
G1 X50.336 Y128.015 E.00994
G1 X50.336 Y93.985 E1.06695
G1 X50.399 Y93.546 E.01393
G1 X50.571 Y93.147 E.01362
G1 X50.841 Y92.806 E.01362
G1 X51.189 Y92.547 E.01362
G1 X51.593 Y92.387 E.01362
G1 X51.985 Y92.336 E.0124
G1 X86.015 Y92.336 E1.06696
G1 X86.454 Y92.399 E.01393
G1 X86.853 Y92.571 E.01362
G1 X87.194 Y92.841 E.01362
G1 X87.453 Y93.189 E.01362
G1 X87.613 Y93.593 E.01362
G1 X87.664 Y93.985 E.0124
G1 X87.664 Y128.015 E1.06696
M73 P8 R24
G1 X87.601 Y128.454 E.01393
G1 X87.429 Y128.853 E.01362
G1 X87.159 Y129.194 E.01362
G1 X86.811 Y129.453 E.01362
G1 X86.382 Y129.617 E.01437
M204 P1000
G1 X86.237 Y129.923 F9000
G1 E-2.24 F4200
;WIPE_START
G1 F7200
G1 X86.015 Y129.664 E-.20555
G1 X84.74 Y129.664 E-.70645
;WIPE_END
G1 E-.048 F4200
G1 Z.4 F720
G1 X129.314 Y49.271 F9000
G1 Z.2 F720
G1 E3.2 F2400
M204 P600
;TYPE:Solid infill
;WIDTH:0.420242
G1 F1200
G1 X130.199 Y50.156 E.03926
G1 X130.485 Y50.565 E.01566
G1 X130.696 Y51.019 E.01569
G1 X130.758 Y51.25 E.0075
G1 X128.75 Y49.242 E.08908
G1 X128.498 Y49.174 E.00819
G1 X128.116 Y49.141 E.01205
G1 X128.71 Y49.736 E.02639
G1 X129.092 Y49.888 E.01287
G1 X129.254 Y49.977 E.00583
G1 X129.685 Y50.315 E.01718
G1 X130.023 Y50.746 E.01717
G1 X130.112 Y50.908 E.00582
G1 X130.264 Y51.29 E.01288
G1 X130.859 Y51.884 E.02639
G1 X130.874 Y52.049 E.0052
G1 X130.874 Y52.432 E.01202
G1 X130.374 Y51.933 E.02215
G1 X130.38 Y52.472 E.01692
G1 X130.874 Y52.966 E.0219
G1 X130.874 Y53.5 E.01674
G1 X130.38 Y53.006 E.0219
G1 X130.38 Y53.54 E.01674
G1 X130.874 Y54.033 E.0219
G1 X130.874 Y54.567 E.01674
G1 X130.38 Y54.073 E.0219
G1 X130.38 Y54.607 E.01674
G1 X130.874 Y55.1 E.0219
G1 X130.874 Y55.634 E.01674
G1 X130.38 Y55.14 E.0219
G1 X130.38 Y55.674 E.01674
G1 X130.874 Y56.168 E.0219
G1 X130.874 Y56.701 E.01674
G1 X130.38 Y56.208 E.0219
G1 X130.38 Y56.741 E.01674
G1 X130.874 Y57.235 E.0219
G1 X130.874 Y57.768 E.01674
G1 X130.38 Y57.275 E.0219
G1 X130.38 Y57.809 E.01674
G1 X130.874 Y58.302 E.0219
G1 X130.874 Y58.836 E.01674
G1 X130.38 Y58.342 E.0219
G1 X130.38 Y58.876 E.01674
G1 X130.874 Y59.369 E.0219
G1 X130.874 Y59.903 E.01674
G1 X130.38 Y59.409 E.0219
G1 X130.38 Y59.943 E.01674
G1 X130.874 Y60.437 E.0219
G1 X130.874 Y60.97 E.01674
G1 X130.38 Y60.477 E.0219
G1 X130.38 Y61.01 E.01674
G1 X130.874 Y61.504 E.0219
G1 X130.874 Y62.037 E.01674
G1 X130.38 Y61.544 E.0219
G1 X130.38 Y62.077 E.01674
G1 X130.874 Y62.571 E.0219
G1 X130.874 Y63.105 E.01674
G1 X130.38 Y62.611 E.0219
G1 X130.38 Y63.145 E.01674
G1 X130.874 Y63.638 E.0219
G1 X130.874 Y64.172 E.01674
G1 X130.38 Y63.678 E.0219
G1 X130.38 Y64.212 E.01674
G1 X130.874 Y64.705 E.0219
G1 X130.874 Y65.239 E.01674
G1 X130.38 Y64.746 E.0219
G1 X130.38 Y65.279 E.01674
G1 X130.874 Y65.773 E.0219
G1 X130.874 Y66.306 E.01674
G1 X130.38 Y65.813 E.0219
G1 X130.38 Y66.346 E.01674
G1 X130.874 Y66.84 E.0219
G1 X130.874 Y67.373 E.01674
G1 X130.38 Y66.88 E.0219
G1 X130.38 Y67.414 E.01674
G1 X130.874 Y67.907 E.0219
G1 X130.874 Y68.441 E.01674
G1 X130.38 Y67.947 E.0219
G1 X130.38 Y68.481 E.01674
G1 X130.874 Y68.974 E.0219
G1 X130.874 Y69.508 E.01674
G1 X130.38 Y69.014 E.0219
G1 X130.38 Y69.548 E.01674
G1 X130.874 Y70.042 E.0219
