; generated by PrusaSlicer 2.5.2+MacOS-arm64 on 2023-05-04 at 12:51:26 UTC


;
;

;
;
; 

; external perimeters extrusion width = 0.45mm
; perimeters extrusion width = 0.45mm
; infill extrusion width = 0.45mm
; solid infill extrusion width = 0.45mm
; top infill extrusion width = 0.40mm
; first layer extrusion width = 0.42mm

M73 P0 R101
M201 X2500 Y2500 Z400 E5000 ; sets maximum accelerations, mm/sec^2
M203 X180 Y180 Z12 E80 ; sets maximum feedrates, mm / sec
M204 P2000 R1250 T2500 ; sets acceleration (P, T) and retract acceleration (R), mm/sec^2
M205 X8.00 Y8.00 Z2.00 E10.00 ; sets the jerk limits, mm/sec
M205 S0 T0 ; sets the minimum extruding and travel feed rate, mm/sec
M107
;TYPE:Custom
M862.3 P "MINI" ; printer model check
G90 ; use absolute coordinates
M83 ; extruder relative mode
M104 S170 ; set extruder temp for bed leveling
M140 S60 ; set bed temp
M109 R170 ; wait for bed leveling temp
M190 S60 ; wait for bed temp
M204 T1250 ; set travel acceleration
G28 ; home all without mesh bed level
G29 ; mesh bed leveling 
M204 T2500 ; restore travel acceleration
M104 S215 ; set extruder temp
G92 E0
G1 Y-2 X179 F2400
G1 Z3 F720
M109 S215 ; wait for extruder temp

; intro line
G1 X170 F1000
G1 Z0.2 F720
G1 X110 E8 F900
G1 X40 E10 F700
G92 E0

M221 S95 ; set flow
G21 ; set units to millimeters
G90 ; use absolute coordinates
M83 ; use relative distances for extrusion
M900 K0.2 ; Filament gcode LA 1.5
; ; Filament gcode LA 1.0
M107
;LAYER_CHANGE
;Z:0.2
;HEIGHT:0.2
;BEFORE_LAYER_CHANGE
G92 E0.0
;0.2


G1 E-3.2 F4200
G1 Z.2 F720
;AFTER_LAYER_CHANGE
;0.2
G1 Z.4
G1 X5.481 Y5.531 F9000
G1 Z.2 F720
G1 E3.2 F2400
M204 P600
;TYPE:Skirt/Brim
;WIDTH:0.42
G1 F1200
G1 X5.742 Y5.272 E.01154
G1 X6.553 Y4.65 E.03204
G1 X7.09 Y4.34 E.01946
G1 X8.055 Y3.94 E.03274
G1 X8.654 Y3.78 E.01946
G1 X10 Y3.623 E.04247
G1 X170.31 Y3.643 E5.02642
G1 X171.345 Y3.78 E.03273
G1 X171.944 Y3.94 E.01945
G1 X172.909 Y4.34 E.03275
G1 X173.448 Y4.65 E.01948
G1 X174.276 Y5.286 E.03273
G1 X174.713 Y5.724 E.01942
G1 X175.35 Y6.552 E.03275
G1 X175.66 Y7.09 E.01945
G1 X176.06 Y8.054 E.03275
G1 X176.221 Y8.655 E.0195
G1 X176.377 Y10 E.04245
G1 X176.377 Y170 E5.01669
G1 X176.221 Y171.345 E.04245
G1 X176.06 Y171.945 E.01949
G1 X175.66 Y172.91 E.03275
G1 X175.349 Y173.448 E.01948
G1 X174.713 Y174.276 E.03274
G1 X174.276 Y174.713 E.01938
G1 X173.448 Y175.349 E.03274
G1 X172.91 Y175.66 E.01948
G1 X171.945 Y176.06 E.03275
G1 X171.345 Y176.221 E.01949
G1 X170 Y176.377 E.04245
G1 X10 Y176.377 E5.01669
G1 X8.655 Y176.221 E.04245
G1 X8.054 Y176.06 E.0195
G1 X7.09 Y175.66 E.03274
G1 X6.552 Y175.35 E.01945
G1 X5.724 Y174.714 E.03275
G1 X5.286 Y174.276 E.01942
G1 X4.65 Y173.448 E.03273
G1 X4.34 Y172.909 E.01948
G1 X3.94 Y171.944 E.03275
G1 X3.78 Y171.345 E.01945
G1 X3.623 Y170 E.04247
G1 X3.623 Y10 E5.01669
G1 X3.78 Y8.654 E.04247
M73 P0 R100
G1 X3.94 Y8.055 E.01946
G1 X4.34 Y7.09 E.03274
G1 X4.65 Y6.553 E.01946
G1 X5.286 Y5.725 E.03274
G1 X5.438 Y5.573 E.00673
M204 P1000
; printing object Frame 4x4.stl id:0 copy 0
G1 E-2.24 F4200
;WIPE_START
G1 F7200
G1 X5.742 Y5.272 E-.23722
G1 X6.553 Y4.65 E-.56622
G1 X6.723 Y4.552 E-.10856
;WIPE_END
G1 E-.048 F4200
G1 Z.4 F720
G1 X172.267 Y172.267 F9000
G1 Z.2 F720
G1 E3.2 F2400
M204 P600
;TYPE:Perimeter
;WIDTH:0.419999
G1 F1200
G1 X171.603 Y172.777 E.02625
G1 X170.83 Y173.097 E.02625
G1 X169.949 Y173.213 E.02786
G1 X10.051 Y173.213 E5.01345
G1 X9.17 Y173.097 E.02787
G1 X8.397 Y172.777 E.02624
G1 X7.733 Y172.267 E.02626
G1 X7.223 Y171.603 E.02623
G1 X6.903 Y170.83 E.02625
G1 X6.787 Y169.948 E.02787
G1 X6.787 Y10.052 E5.01344
G1 X6.903 Y9.17 E.02787
M73 P1 R100
G1 X7.223 Y8.397 E.02624
G1 X7.733 Y7.733 E.02624
G1 X8.397 Y7.223 E.02624
G1 X9.17 Y6.903 E.02624
G1 X10.052 Y6.787 E.02787
G1 X169.958 Y6.788 E5.01373
G1 X170.83 Y6.903 E.02757
G1 X171.603 Y7.223 E.02625
G1 X172.267 Y7.733 E.02623
G1 X172.777 Y8.397 E.02626
G1 X173.097 Y9.17 E.02624
G1 X173.213 Y10.051 E.02787
G1 X173.213 Y169.949 E5.01345
G1 X173.097 Y170.83 E.02786
G1 X172.777 Y171.603 E.02625
G1 X172.303 Y172.219 E.02437
M204 P1000
G1 X172.536 Y172.536 F9000
M204 P600
;TYPE:External perimeter
G1 F1200
G1 X171.793 Y173.106 E.02936
G1 X170.928 Y173.465 E.02936
G1 X169.973 Y173.59 E.03019
G1 X10.027 Y173.59 E5.015
G1 X9.072 Y173.465 E.0302
G1 X8.207 Y173.106 E.02936
G1 X7.464 Y172.536 E.02937
G1 X6.894 Y171.793 E.02935
G1 X6.536 Y170.928 E.02936
G1 X6.41 Y169.973 E.0302
G1 X6.41 Y10.027 E5.01499
G1 X6.536 Y9.072 E.03021
G1 X6.894 Y8.207 E.02936
G1 X7.464 Y7.464 E.02936
G1 X8.207 Y6.894 E.02936
G1 X9.072 Y6.536 E.02936
G1 X10.027 Y6.41 E.03021
G1 X169.982 Y6.411 E5.01528
G1 X170.928 Y6.536 E.0299
M73 P1 R99
G1 X171.793 Y6.894 E.02936
G1 X172.536 Y7.464 E.02935
G1 X173.106 Y8.207 E.02937
G1 X173.465 Y9.072 E.02936
G1 X173.59 Y10.027 E.0302
G1 X173.59 Y169.973 E5.015
G1 X173.465 Y170.928 E.03019
G1 X173.106 Y171.793 E.02936
G1 X172.572 Y172.488 E.02748
M204 P1000
G1 X172.149 Y172.432 F9000
G1 E-2.24 F4200
;WIPE_START
G1 F7200
G1 X171.793 Y173.106 E-.55105
G1 X171.191 Y173.355 E-.36095
;WIPE_END
G1 E-.048 F4200
G1 Z.4 F720
G1 X44.525 Y8.039 F9000
G1 Z.2 F720
G1 E3.2 F2400
M204 P600
;TYPE:Perimeter
G1 F1200
G1 X44.599 Y8.051 E.00234
G1 X45.083 Y8.272 E.01669
G1 X45.493 Y8.611 E.01669
G1 X45.802 Y9.045 E.01669
G1 X45.987 Y9.544 E.01668
G1 X46.041 Y9.985 E.01395
G1 X46.041 Y44.015 E1.06696
G1 X45.972 Y44.531 E.01634
G1 X45.766 Y45.026 E.01681
G1 X45.444 Y45.444 E.01654
G1 X45.026 Y45.766 E.01654
G1 X44.531 Y45.972 E.01681
G1 X44.015 Y46.041 E.01634
G1 X9.985 Y46.041 E1.06696
G1 X9.465 Y45.971 E.01647
M73 P2 R99
G1 X8.917 Y45.728 E.01879
G1 X8.507 Y45.389 E.01669
G1 X8.198 Y44.955 E.01669
G1 X8.016 Y44.48 E.01595
G1 X7.959 Y44.015 E.0147
G1 X7.959 Y9.985 E1.06695
G1 X8.027 Y9.471 E.01626
G1 X8.231 Y8.979 E.01672
G1 X8.556 Y8.556 E.01672
G1 X8.979 Y8.231 E.01672
G1 X9.471 Y8.027 E.01672
G1 X9.985 Y7.959 E.01626
G1 X44.015 Y7.959 E1.06695
G1 X44.466 Y8.03 E.01432
M204 P1000
G1 X44.296 Y8.377 F9000
M204 P600
;TYPE:External perimeter
G1 F1200
G1 X44.454 Y8.399 E.00502
G1 X44.853 Y8.571 E.01362
G1 X45.194 Y8.841 E.01362
G1 X45.453 Y9.189 E.01362
G1 X45.613 Y9.593 E.01362
G1 X45.664 Y9.985 E.0124
G1 X45.664 Y44.015 E1.06696
G1 X45.601 Y44.454 E.01393
G1 X45.429 Y44.853 E.01362
G1 X45.159 Y45.194 E.01362
G1 X44.811 Y45.453 E.01362
G1 X44.407 Y45.613 E.01362
G1 X44.015 Y45.664 E.0124
G1 X9.985 Y45.664 E1.06696
G1 X9.546 Y45.601 E.01393
G1 X9.147 Y45.429 E.01362
G1 X8.806 Y45.159 E.01362
G1 X8.547 Y44.811 E.01362
G1 X8.386 Y44.407 E.01362
G1 X8.336 Y44.015 E.0124
G1 X8.336 Y9.985 E1.06695
G1 X8.399 Y9.546 E.01393
G1 X8.571 Y9.147 E.01362
G1 X8.841 Y8.806 E.01362
G1 X9.189 Y8.547 E.01362
G1 X9.593 Y8.386 E.01362
G1 X10.09 Y8.336 E.01566
G1 X44.015 Y8.336 E1.06368
G1 X44.236 Y8.368 E.00703
M204 P1000
G1 X44.389 Y8.246 F9000
G1 E-2.24 F4200
;WIPE_START
G1 F7200
G1 X44.454 Y8.399 E-.12204
G1 X44.853 Y8.571 E-.24073
G1 X45.194 Y8.841 E-.24072
G1 X45.453 Y9.189 E-.24073
G1 X45.498 Y9.303 E-.06778
;WIPE_END
G1 E-.048 F4200
G1 Z.4 F720
G1 X86.525 Y8.039 F9000
G1 Z.2 F720
G1 E3.2 F2400
M204 P600
;TYPE:Perimeter
G1 F1200
G1 X86.599 Y8.051 E.00233
G1 X87.083 Y8.272 E.01669
G1 X87.493 Y8.611 E.01669
G1 X87.802 Y9.045 E.01668
G1 X87.987 Y9.544 E.01669
G1 X88.041 Y9.985 E.01395
G1 X88.041 Y44.015 E1.06695
G1 X87.972 Y44.531 E.01634
G1 X87.766 Y45.026 E.01681
G1 X87.444 Y45.444 E.01654
G1 X87.026 Y45.766 E.01654
G1 X86.531 Y45.972 E.01681
G1 X86.015 Y46.041 E.01634
G1 X51.985 Y46.041 E1.06696
G1 X51.469 Y45.972 E.01634
G1 X50.974 Y45.766 E.01681
G1 X50.556 Y45.444 E.01654
G1 X50.234 Y45.026 E.01654
G1 X50.028 Y44.531 E.01681
G1 X49.959 Y44.015 E.01634
G1 X49.959 Y9.985 E1.06696
G1 X50.029 Y9.465 E.01647
G1 X50.272 Y8.917 E.01879
G1 X50.611 Y8.507 E.01669
G1 X51.045 Y8.198 E.01669
G1 X51.52 Y8.016 E.01595
G1 X51.985 Y7.959 E.0147
G1 X86.015 Y7.959 E1.06695
G1 X86.466 Y8.03 E.01433
M204 P1000
G1 X86.31 Y8.379 F9000
M204 P600
;TYPE:External perimeter
G1 F1200
G1 X86.454 Y8.399 E.00457
G1 X86.853 Y8.571 E.01362
G1 X87.194 Y8.841 E.01362
G1 X87.453 Y9.189 E.01362
G1 X87.614 Y9.593 E.01362
G1 X87.664 Y9.985 E.0124
G1 X87.664 Y44.015 E1.06695
G1 X87.601 Y44.454 E.01393
G1 X87.429 Y44.853 E.01362
G1 X87.159 Y45.194 E.01362
G1 X86.811 Y45.453 E.01362
G1 X86.407 Y45.613 E.01362
G1 X86.015 Y45.664 E.0124
G1 X51.985 Y45.664 E1.06696
G1 X51.546 Y45.601 E.01393
G1 X51.147 Y45.429 E.01362
G1 X50.806 Y45.159 E.01362
G1 X50.547 Y44.811 E.01362
G1 X50.387 Y44.407 E.01362
G1 X50.336 Y44.015 E.0124
G1 X50.336 Y9.985 E1.06696
G1 X50.399 Y9.546 E.01393
G1 X50.571 Y9.147 E.01362
G1 X50.841 Y8.806 E.01362
G1 X51.189 Y8.547 E.01362
G1 X51.593 Y8.386 E.01362
G1 X51.985 Y8.336 E.0124
G1 X86.015 Y8.336 E1.06695
G1 X86.251 Y8.37 E.00748
M204 P1000
G1 X86.395 Y8.26 F9000
G1 E-2.24 F4200
;WIPE_START
G1 F7200
G1 X86.454 Y8.399 E-.1141
G1 X86.853 Y8.571 E-.24072
G1 X87.194 Y8.841 E-.24074
G1 X87.453 Y9.189 E-.24068
G1 X87.504 Y9.316 E-.07576
;WIPE_END
G1 E-.048 F4200
G1 Z.4 F720
G1 X128.067 Y7.968 F9000
G1 Z.2 F720
G1 E3.2 F2400
M204 P600
;TYPE:Perimeter
G1 F1200
G1 X128.599 Y8.051 E.01689
G1 X129.083 Y8.272 E.01668
G1 X129.494 Y8.612 E.01671
G1 X129.802 Y9.045 E.01668
G1 X129.987 Y9.543 E.01664
G1 X130.041 Y9.985 E.01398
G1 X130.041 Y44.015 E1.06696
G1 X129.972 Y44.531 E.01635
G1 X129.766 Y45.026 E.01679
G1 X129.445 Y45.444 E.01655
G1 X129.026 Y45.766 E.01654
G1 X128.532 Y45.972 E.0168
G1 X128.015 Y46.041 E.01636
G1 X93.985 Y46.041 E1.06696
G1 X93.469 Y45.972 E.01634
G1 X92.974 Y45.766 E.01681
G1 X92.556 Y45.444 E.01654
G1 X92.234 Y45.026 E.01654
G1 X92.028 Y44.531 E.01681
G1 X91.959 Y44.015 E.01634
G1 X91.959 Y9.985 E1.06695
G1 X92.029 Y9.465 E.01647
G1 X92.272 Y8.917 E.01879
G1 X92.611 Y8.507 E.01669
G1 X93.045 Y8.198 E.01669
G1 X93.52 Y8.016 E.01595
G1 X93.985 Y7.959 E.0147
G1 X128.008 Y7.959 E1.06674
M204 P1000
G1 X127.606 Y8.336 F9000
M204 P600
;TYPE:External perimeter
G1 F1200
G1 X128.014 Y8.336 E.01282
G1 X128.455 Y8.399 E.01395
G1 X128.853 Y8.571 E.01361
G1 X129.194 Y8.841 E.01363
G1 X129.453 Y9.19 E.01362
G1 X129.613 Y9.593 E.01361
G1 X129.664 Y9.985 E.01241
G1 X129.664 Y44.015 E1.06696
G1 X129.601 Y44.454 E.01393
G1 X129.429 Y44.853 E.01361
G1 X129.159 Y45.194 E.01362
G1 X128.811 Y45.453 E.01362
G1 X128.407 Y45.613 E.01361
G1 X128.015 Y45.664 E.01242
G1 X93.985 Y45.664 E1.06696
G1 X93.546 Y45.601 E.01393
G1 X93.147 Y45.429 E.01362
G1 X92.806 Y45.159 E.01362
G1 X92.547 Y44.811 E.01362
G1 X92.386 Y44.407 E.01362
G1 X92.336 Y44.015 E.0124
G1 X92.336 Y9.985 E1.06695
G1 X92.399 Y9.546 E.01393
M73 P2 R98
G1 X92.571 Y9.147 E.01362
G1 X92.841 Y8.806 E.01362
G1 X93.189 Y8.547 E.01362
G1 X93.593 Y8.386 E.01362
G1 X93.985 Y8.336 E.0124
G1 X127.546 Y8.336 E1.05226
M204 P1000
G1 X127.806 Y7.99 F9000
G1 E-2.24 F4200
;WIPE_START
G1 F7200
G1 X128.014 Y8.336 E-.25977
G1 X128.455 Y8.399 E-.2465
G1 X128.853 Y8.571 E-.24059
G1 X129.087 Y8.756 E-.16513
;WIPE_END
G1 E-.048 F4200
G1 Z.4 F720
G1 X135.471 Y8.035 F9000
G1 Z.2 F720
G1 E3.2 F2400
M204 P600
;TYPE:Perimeter
G1 F1200
G1 X135.986 Y7.959 E.01632
G1 X170.014 Y7.959 E1.06695
G1 X170.529 Y8.027 E.01626
G1 X171.021 Y8.231 E.01672
G1 X171.444 Y8.556 E.01672
G1 X171.769 Y8.979 E.01673
G1 X171.973 Y9.471 E.01671
G1 X172.041 Y9.985 E.01626
G1 X172.041 Y44.015 E1.06696
G1 X171.949 Y44.598 E.01853
G1 X171.728 Y45.082 E.01668
G1 X171.389 Y45.493 E.0167
G1 X170.955 Y45.802 E.01669
G1 X170.457 Y45.987 E.01668
G1 X170.015 Y46.041 E.01396
G1 X135.985 Y46.041 E1.06695
G1 X135.468 Y45.972 E.01636
G1 X134.974 Y45.766 E.0168
G1 X134.555 Y45.444 E.01654
G1 X134.234 Y45.026 E.01655
G1 X134.028 Y44.532 E.01678
G1 X133.959 Y44.015 E.01636
G1 X133.959 Y9.985 E1.06696
G1 X134.029 Y9.465 E.01646
G1 X134.272 Y8.918 E.01878
G1 X134.611 Y8.507 E.0167
G1 X135.045 Y8.198 E.01669
G1 X135.415 Y8.057 E.01242
M204 P1000
G1 X135.494 Y8.426 F9000
M204 P600
;TYPE:External perimeter
G1 F1200
G1 X135.593 Y8.386 E.00333
G1 X135.986 Y8.336 E.01241
G1 X170.014 Y8.336 E1.06695
G1 X170.455 Y8.399 E.01395
G1 X170.853 Y8.571 E.01361
G1 X171.194 Y8.841 E.01363
G1 X171.453 Y9.19 E.01362
G1 X171.613 Y9.593 E.0136
G1 X171.664 Y10.09 E.01567
G1 X171.664 Y44.015 E1.06369
G1 X171.601 Y44.454 E.01392
G1 X171.429 Y44.853 E.01362
G1 X171.159 Y45.194 E.01362
G1 X170.811 Y45.453 E.01362
G1 X170.407 Y45.613 E.01361
G1 X170.015 Y45.664 E.01242
G1 X135.985 Y45.664 E1.06695
G1 X135.545 Y45.601 E.01395
G1 X135.147 Y45.429 E.01361
G1 X134.806 Y45.159 E.01363
G1 X134.547 Y44.81 E.01362
G1 X134.387 Y44.407 E.01361
G1 X134.336 Y44.015 E.0124
G1 X134.336 Y9.985 E1.06696
G1 X134.399 Y9.546 E.01392
G1 X134.571 Y9.147 E.01362
G1 X134.841 Y8.806 E.01362
G1 X135.189 Y8.547 E.01362
G1 X135.438 Y8.448 E.0084
M204 P1000
G1 X135.504 Y8.32 F9000
G1 E-2.24 F4200
;WIPE_START
G1 F7200
G1 X135.593 Y8.386 E-.09219
G1 X135.986 Y8.336 E-.21941
G1 X137.069 Y8.336 E-.60041
;WIPE_END
G1 E-.048 F4200
G1 Z.4 F720
G1 X171.962 Y51.475 F9000
G1 Z.2 F720
G1 E3.2 F2400
M204 P600
;TYPE:Perimeter
G1 F1200
G1 X171.987 Y51.543 E.00226
G1 X172.041 Y51.985 E.01399
G1 X172.041 Y86.015 E1.06696
G1 X171.949 Y86.598 E.01853
M73 P3 R98
G1 X171.728 Y87.082 E.01668
G1 X171.389 Y87.493 E.0167
G1 X170.955 Y87.801 E.01668
G1 X170.456 Y87.987 E.0167
G1 X170.014 Y88.041 E.01396
G1 X135.986 Y88.041 E1.06695
G1 X135.468 Y87.972 E.01636
G1 X134.974 Y87.766 E.01681
G1 X134.555 Y87.444 E.01654
G1 X134.234 Y87.026 E.01655
G1 X134.028 Y86.532 E.01678
G1 X133.959 Y86.015 E.01636
G1 X133.959 Y51.985 E1.06696
G1 X134.051 Y51.402 E.01853
G1 X134.272 Y50.918 E.01668
G1 X134.611 Y50.507 E.0167
G1 X135.045 Y50.198 E.01669
G1 X135.543 Y50.013 E.01668
G1 X135.985 Y49.959 E.01396
G1 X170.015 Y49.959 E1.06695
G1 X170.536 Y50.029 E.01648
G1 X171.083 Y50.272 E.01878
G1 X171.494 Y50.612 E.01671
G1 X171.802 Y51.045 E.01668
G1 X171.941 Y51.419 E.01249
M204 P1000
G1 X171.619 Y51.641 F9000
M204 P600
;TYPE:External perimeter
G1 F1200
G1 X171.664 Y51.985 E.01089
G1 X171.664 Y86.015 E1.06696
G1 X171.601 Y86.454 E.01392
G1 X171.429 Y86.853 E.01362
G1 X171.159 Y87.194 E.01362
G1 X170.811 Y87.453 E.01362
G1 X170.407 Y87.614 E.01362
G1 X170.014 Y87.664 E.01241
G1 X135.986 Y87.664 E1.06695
G1 X135.545 Y87.601 E.01395
G1 X135.147 Y87.429 E.01361
G1 X134.806 Y87.159 E.01363
G1 X134.547 Y86.81 E.01362
G1 X134.387 Y86.407 E.01361
G1 X134.336 Y86.015 E.0124
G1 X134.336 Y51.985 E1.06696
G1 X134.399 Y51.546 E.01393
G1 X134.571 Y51.147 E.01361
G1 X134.841 Y50.806 E.01362
G1 X135.189 Y50.547 E.01362
G1 X135.593 Y50.387 E.01361
G1 X135.985 Y50.336 E.01242
G1 X170.015 Y50.336 E1.06695
G1 X170.455 Y50.399 E.01395
G1 X170.853 Y50.571 E.01361
G1 X171.194 Y50.841 E.01363
G1 X171.453 Y51.19 E.01362
G1 X171.609 Y51.582 E.01324
M204 P1000
G1 X171.954 Y51.735 F9000
G1 E-2.24 F4200
;WIPE_START
G1 F7200
G1 X171.664 Y51.985 E-.2256
G1 X171.664 Y53.224 E-.6864
;WIPE_END
G1 E-.048 F4200
G1 Z.4 F720
G1 X171.961 Y128.526 F9000
G1 Z.2 F720
G1 E3.2 F2400
M204 P600
;TYPE:Perimeter
G1 F1200
G1 X171.949 Y128.599 E.00232
G1 X171.728 Y129.083 E.01667
G1 X171.389 Y129.494 E.01671
G1 X170.955 Y129.802 E.01668
G1 X170.458 Y129.987 E.01664
G1 X170.015 Y130.041 E.01399
G1 X135.985 Y130.041 E1.06696
G1 X135.468 Y129.972 E.01636
G1 X134.974 Y129.766 E.01678
G1 X134.555 Y129.445 E.01655
G1 X134.234 Y129.026 E.01655
G1 X134.028 Y128.532 E.01677
G1 X133.959 Y128.015 E.01637
G1 X133.959 Y93.985 E1.06696
G1 X134.028 Y93.469 E.01635
G1 X134.234 Y92.974 E.01679
G1 X134.555 Y92.556 E.01655
G1 X134.974 Y92.234 E.01654
G1 X135.468 Y92.028 E.01681
G1 X135.986 Y91.959 E.01636
G1 X170.014 Y91.959 E1.06695
G1 X170.536 Y92.029 E.01649
G1 X171.083 Y92.272 E.01878
G1 X171.494 Y92.612 E.01671
G1 X171.802 Y93.045 E.01668
G1 X171.987 Y93.543 E.01664
G1 X172.041 Y93.985 E.01399
G1 X172.041 Y128.015 E1.06696
G1 X171.97 Y128.466 E.01434
M204 P1000
G1 X171.623 Y128.297 F9000
M204 P600
;TYPE:External perimeter
G1 F1200
G1 X171.601 Y128.455 E.005
G1 X171.429 Y128.853 E.01361
G1 X171.159 Y129.194 E.01363
G1 X170.811 Y129.453 E.01362
G1 X170.407 Y129.613 E.0136
G1 X170.015 Y129.664 E.01242
G1 X135.985 Y129.664 E1.06696
G1 X135.545 Y129.601 E.01394
G1 X135.147 Y129.429 E.0136
