; generated by PrusaSlicer 2.5.2+MacOS-x64 on 2023-04-17 at 22:43:42 UTC


;
;

;
;
; 

; external perimeters extrusion width = 0.45mm
; perimeters extrusion width = 0.45mm
; infill extrusion width = 0.45mm
; solid infill extrusion width = 0.45mm
; top infill extrusion width = 0.40mm
; first layer extrusion width = 0.42mm

M73 P0 R64
M201 X2500 Y2500 Z400 E5000 ; sets maximum accelerations, mm/sec^2
M203 X180 Y180 Z12 E80 ; sets maximum feedrates, mm / sec
M204 P2000 R1250 T2500 ; sets acceleration (P, T) and retract acceleration (R), mm/sec^2
M205 X8.00 Y8.00 Z2.00 E10.00 ; sets the jerk limits, mm/sec
M205 S0 T0 ; sets the minimum extruding and travel feed rate, mm/sec
M107
;TYPE:Custom
M862.3 P "MINI" ; printer model check
G90 ; use absolute coordinates
M83 ; extruder relative mode
M104 S170 ; set extruder temp for bed leveling
M140 S60 ; set bed temp
M109 R170 ; wait for bed leveling temp
M190 S60 ; wait for bed temp
M204 T1250 ; set travel acceleration
G28 ; home all without mesh bed level
G29 ; mesh bed leveling 
M204 T2500 ; restore travel acceleration
M104 S215 ; set extruder temp
G92 E0
G1 Y-2 X179 F2400
G1 Z3 F720
M109 S215 ; wait for extruder temp

; intro line
G1 X170 F1000
G1 Z0.2 F720
G1 X110 E8 F900
G1 X40 E10 F700
G92 E0

M221 S95 ; set flow
G21 ; set units to millimeters
G90 ; use absolute coordinates
M83 ; use relative distances for extrusion
M900 K0.2 ; Filament gcode LA 1.5
; ; Filament gcode LA 1.0
M107
;LAYER_CHANGE
;Z:0.2
;HEIGHT:0.2
;BEFORE_LAYER_CHANGE
G92 E0.0
;0.2


G1 E-3.2 F4200
G1 Z.2 F720
;AFTER_LAYER_CHANGE
;0.2
G1 Z.4
G1 X63.123 Y81.106 F9000
G1 Z.2 F720
G1 E3.2 F2400
M204 P600
;TYPE:Skirt/Brim
;WIDTH:0.42
G1 F1200
G1 X64.083 Y80.62 E.03372
G1 X65.281 Y80.358 E.03847
G1 X90.081 Y78.804 E.77912
G1 X92.415 Y78.96 E.07332
G1 X94.77 Y79.427 E.07529
G1 X97.05 Y80.197 E.07544
G1 X99.223 Y81.27 E.07598
G1 X101.255 Y82.633 E.07674
G1 X103.094 Y84.262 E.07702
G1 X104.717 Y86.148 E.07802
M73 P0 R63
G1 X105.96 Y88.048 E.07119
G1 X106.343 Y89.039 E.03331
G1 X106.459 Y90.036 E.03148
G1 X106.305 Y91.103 E.03381
G1 X105.885 Y92.086 E.03349
G1 X104.739 Y93.821 E.06521
G1 X103.378 Y95.443 E.06638
G1 X101.794 Y96.935 E.06823
G1 X100.188 Y98.132 E.0628
G1 X98.989 Y98.863 E.04402
G1 X97.702 Y99.517 E.04528
G1 X96.506 Y100.017 E.04063
G1 X95.108 Y100.48 E.04619
G1 X92.477 Y101.033 E.08429
G1 X91.059 Y101.167 E.04467
G1 X89.749 Y101.194 E.04109
G1 X65.154 Y99.63 E.77269
G1 X64.078 Y99.378 E.03467
G1 X63.224 Y98.959 E.02982
G1 X62.471 Y98.359 E.03019
G1 X61.87 Y97.612 E.03007
G1 X61.358 Y96.505 E.03822
G1 X61.153 Y95.315 E.03788
G1 X61.163 Y84.526 E.33827
G1 X61.322 Y83.615 E.02901
G1 X61.717 Y82.646 E.03279
G1 X62.388 Y81.727 E.03569
G1 X63.077 Y81.145 E.02828
M204 P1000
G1 X63.319 Y81.43 F9000
M204 P600
G1 F1200
G1 X64.216 Y80.973 E.03156
G1 X65.317 Y80.734 E.03534
G1 X90.081 Y79.181 E.77797
G1 X92.365 Y79.333 E.07177
G1 X94.67 Y79.79 E.0737
G1 X96.908 Y80.547 E.07406
G1 X99.032 Y81.595 E.07427
G1 X101.026 Y82.932 E.07527
G1 X102.827 Y84.528 E.07546
G1 X104.416 Y86.376 E.0764
G1 X105.66 Y88.287 E.07149
G1 X105.992 Y89.196 E.03036
G1 X106.076 Y90.221 E.03223
G1 X105.864 Y91.244 E.03277
G1 X105.405 Y92.156 E.032
G1 X104.275 Y93.81 E.06282
G1 X102.976 Y95.318 E.06239
G1 X101.551 Y96.647 E.0611
G1 X99.945 Y97.84 E.06273
G1 X97.675 Y99.114 E.08163
G1 X96.407 Y99.651 E.04315
G1 X95.143 Y100.077 E.04181
G1 X93.892 Y100.399 E.04053
G1 X92.424 Y100.659 E.04676
G1 X89.914 Y100.819 E.07885
G1 X65.19 Y99.254 E.77673
G1 X64.211 Y99.026 E.03152
G1 X63.429 Y98.643 E.0273
G1 X62.741 Y98.095 E.02759
G1 X62.19 Y97.413 E.02749
G1 X61.72 Y96.399 E.03507
G1 X61.53 Y95.303 E.03488
G1 X61.538 Y84.56 E.33683
G1 X61.684 Y83.721 E.02668
G1 X62.05 Y82.823 E.03041
G1 X62.658 Y81.99 E.03235
G1 X63.273 Y81.469 E.02528
M204 P1000
; printing object 3DBenchy.stl id:0 copy 0
G1 E-2.24 F4200
;WIPE_START
G1 F7200
G1 X64.216 Y80.973 E-.59022
G1 X64.783 Y80.849 E-.32178
;WIPE_END
G1 E-.048 F4200
G1 Z.4 F720
G1 X99.219 Y87.697 F9000
G1 Z.2 F720
G1 E3.2 F2400
M204 P600
;TYPE:Perimeter
;WIDTH:0.419999
G1 F1200
G1 X97.998 Y87.7 E.03829
G1 X97.399 Y87.793 E.01899
G1 X96.938 Y88.039 E.01637
G1 X96.771 Y88.264 E.00879
G1 X96.456 Y87.914 E.01475
G1 X96.026 Y87.734 E.01462
G1 X95.718 Y87.73 E.00967
G1 X95.358 Y87.848 E.01186
G1 X95.146 Y88.002 E.00823
G1 X94.741 Y88.509 E.02033
G1 X94.538 Y89.044 E.01794
G1 X94.353 Y88.457 E.01928
G1 X94.12 Y88.119 E.01289
G1 X93.792 Y87.875 E.01281
G1 X93.384 Y87.727 E.01361
G1 X92.934 Y87.719 E.01412
G1 X92.488 Y87.874 E.0148
G1 X92.15 Y88.208 E.0149
G1 X91.933 Y87.975 E.00999
G1 X91.488 Y87.745 E.01569
G1 X91.081 Y87.72 E.01279
G1 X90.716 Y87.854 E.01219
G1 X90.345 Y88.167 E.01521
G1 X90.174 Y88.419 E.00956
G1 X90.005 Y88.142 E.01016
G1 X89.605 Y87.822 E.01604
G1 X89.18 Y87.709 E.01382
G1 X88.73 Y87.769 E.01423
G1 X88.37 Y87.947 E.01258
G1 X88.07 Y88.252 E.0134
G1 X87.906 Y88.644 E.01334
G1 X87.902 Y89.096 E.01417
G1 X88.056 Y89.59 E.01624
G1 X88.708 Y90.754 E.04182
G1 X88.557 Y90.997 E.00897
G1 X88.294 Y91.56 E.01949
G1 X88.213 Y91.392 E.00586
G1 X87.948 Y91.051 E.01355
G1 X87.521 Y90.763 E.01614
G1 X87.288 Y90.677 E.0078
G1 X86.688 Y90.624 E.01888
G1 X86.316 Y90.721 E.01205
G1 X86.397 Y89.785 E.02945
G1 X86.36 Y89.255 E.01669
G1 X86.225 Y88.572 E.02181
G1 X86.061 Y88.091 E.01593
G1 X85.769 Y87.558 E.01906
G1 X85.403 Y87.11 E.01815
G1 X85.007 Y86.783 E.0161
G1 X84.528 Y86.531 E.01697
G1 X84.003 Y86.375 E.01717
G1 X83.352 Y86.284 E.02063
G1 X81.745 Y86.247 E.05039
G1 X81.372 Y86.282 E.01175
G1 X80.881 Y86.457 E.01631
G1 X80.539 Y86.763 E.01439
G1 X80.346 Y87.174 E.01425
;WIDTH:0.461927
G1 X80.319 Y87.347 E.0061
;WIDTH:0.503855
G1 X80.293 Y87.52 E.00671
;WIDTH:0.545782
G1 X80.266 Y87.693 E.00732
G1 X80.15 Y87.478 E.01024
;WIDTH:0.503855
G1 X80.033 Y87.262 E.00939
;WIDTH:0.461927
G1 X79.917 Y87.047 E.00853
;WIDTH:0.419999
G1 X79.524 Y86.612 E.01837
G1 X78.948 Y86.282 E.02083
G1 X78.298 Y86.12 E.02099
G1 X77.527 Y86.094 E.02418
G1 X76.799 Y86.213 E.02313
G1 X76.286 Y86.435 E.01755
G1 X75.76 Y86.861 E.02121
G1 X75.524 Y86.562 E.01195
G1 X75.188 Y86.357 E.01234
G1 X74.714 Y86.258 E.01517
G1 X71.541 Y86.269 E.09949
G1 X70.829 Y86.23 E.02236
G1 X70.258 Y86.387 E.01858
G1 X69.952 Y86.677 E.0132
G1 X69.744 Y87.009 E.01228
G1 X69.44 Y86.681 E.01403
G1 X69.038 Y86.409 E.01523
G1 X68.66 Y86.245 E.01292
G1 X68.126 Y86.121 E.01719
G1 X67.553 Y86.088 E.018
G1 X66.861 Y86.161 E.02179
G1 X66.211 Y86.372 E.02144
G1 X65.576 Y86.756 E.02327
G1 X65.143 Y87.174 E.01887
G1 X64.907 Y87.512 E.01293
G1 X64.917 Y85.264 E.07048
G1 X64.963 Y84.898 E.01156
G1 X65.07 Y84.587 E.01033
G1 X65.305 Y84.316 E.01123
G1 X65.504 Y84.225 E.00687
G1 X65.854 Y84.133 E.01135
G1 X89.158 Y82.717 E.73202
G1 X90.241 Y82.693 E.03396
G1 X91.036 Y82.726 E.02497
G1 X91.735 Y82.793 E.02201
G1 X92.309 Y82.873 E.01816
G1 X92.974 Y82.996 E.0212
G1 X93.861 Y83.217 E.02868
G1 X94.511 Y83.413 E.02128
G1 X95.2 Y83.665 E.02298
G1 X95.754 Y83.894 E.0188
G1 X96.623 Y84.318 E.03033
G1 X97.157 Y84.61 E.01908
G1 X97.778 Y84.995 E.02291
G1 X98.346 Y85.386 E.02164
G1 X98.95 Y85.851 E.02388
G1 X99.502 Y86.324 E.02278
G1 X99.949 Y86.746 E.01928
G1 X100.5 Y87.321 E.02499
;WIDTH:0.46556
G1 X100.556 Y87.42 E.00398
;WIDTH:0.51112
G1 X100.612 Y87.518 E.00441
;WIDTH:0.55668
G1 X100.667 Y87.617 E.00484
;WIDTH:0.60224
G1 X100.723 Y87.715 E.00526
;WIDTH:0.6478
G1 X100.779 Y87.814 E.00569
G1 X100.708 Y87.803 E.00357
;WIDTH:0.605095
G1 X100.638 Y87.792 E.00332
;WIDTH:0.56239
G1 X100.568 Y87.781 E.00307
;WIDTH:0.519684
G1 X100.306 Y87.74 E.01051
;WIDTH:0.469842
G1 X100.044 Y87.699 E.00941
;WIDTH:0.419999
G1 X99.279 Y87.697 E.024
M204 P1000
G1 E-2.24 F4200
;WIPE_START
G1 F7200
G1 X97.998 Y87.7 E-.71005
G1 X97.637 Y87.756 E-.20195
;WIPE_END
G1 E-.048 F4200
G1 Z.4 F720
G1 X99.952 Y91.363 F9000
G1 Z.2 F720
G1 E3.2 F2400
M204 P600
G1 F1200
G1 X100.478 Y90.652 E.02775
G1 X100.989 Y89.909 E.02825
G1 X101.2 Y89.41 E.017
G1 X101.229 Y88.85 E.01757
;WIDTH:0.460156
G1 X101.22 Y88.74 E.00382
;WIDTH:0.500312
G1 X101.211 Y88.631 E.00419
;WIDTH:0.540468
G1 X101.202 Y88.521 E.00455
;WIDTH:0.580624
G1 X101.192 Y88.411 E.00492
;WIDTH:0.62078
G1 X101.183 Y88.302 E.00529
G1 X101.254 Y88.36 E.00441
;WIDTH:0.575814
G1 X101.325 Y88.418 E.00406
;WIDTH:0.530848
G1 X101.396 Y88.476 E.00372
;WIDTH:0.485882
G1 X101.466 Y88.535 E.00338
;WIDTH:0.440915
G1 X101.673 Y88.803 E.01121
;WIDTH:0.419999
G1 X101.987 Y89.282 E.01796
G1 X102.279 Y89.794 E.01849
G1 X102.323 Y90.04 E.00783
G1 X102.24 Y90.296 E.00845
G1 X101.834 Y90.957 E.02431
G1 X101.098 Y92.054 E.04143
G1 X100.963 Y91.826 E.00832
G1 X100.748 Y91.622 E.00929
G1 X100.376 Y91.426 E.01319
G1 X100.011 Y91.371 E.01157
M204 P1000
G1 E-2.24 F4200
;WIPE_START
G1 F7200
G1 X100.478 Y90.652 E-.47563
G1 X100.925 Y90.003 E-.43637
;WIPE_END
G1 E-.048 F4200
G1 Z.4 F720
G1 X79.741 Y89.474 F9000
G1 Z.2 F720
G1 E3.2 F2400
M204 P600
;WIDTH:0.503082
G1 F1200
G1 X80.014 Y89.179 E.01538
G1 X80.159 Y88.905 E.01188
;WIDTH:0.533866
G1 X80.29 Y88.407 E.02099
G1 X80.305 Y88.921 E.02099
;WIDTH:0.503082
G1 X80.303 Y90.183 E.04827
G1 X80.173 Y89.909 E.01159
G1 X80.015 Y89.705 E.00989
G1 X79.787 Y89.513 E.01141
M204 P1000
G1 E-2.24 F4200
;WIPE_START
G1 F7200
G1 X80.014 Y89.179 E-.22371
G1 X80.159 Y88.905 E-.17199
G1 X80.29 Y88.407 E-.28492
G1 X80.302 Y88.825 E-.23138
;WIPE_END
G1 E-.048 F4200
G1 Z.4 F720
G1 X68.655 Y90.774 F9000
G1 Z.2 F720
G1 E3.2 F2400
M204 P600
;WIDTH:0.419999
G1 F1200
G1 X68.341 Y90.834 E.01
G1 X68.002 Y91.026 E.01223
G1 X67.809 Y91.222 E.00863
G1 X67.575 Y91.271 E.00747
G1 X67.27 Y91.203 E.00981
G1 X67.086 Y91.059 E.00734
G1 X66.94 Y90.707 E.01193
G1 X66.881 Y90.288 E.01327
G1 X66.869 Y89.746 E.01699
G1 X66.937 Y89.201 E.01722
G1 X67.083 Y88.874 E.01122
G1 X67.339 Y88.694 E.00982
G1 X67.603 Y88.68 E.00828
G1 X68.235 Y89.03 E.02265
G1 X68.573 Y89.146 E.01119
G1 X68.925 Y89.18 E.01109
G1 X69.245 Y89.123 E.01021
G1 X69.636 Y88.898 E.01412
G1 X69.966 Y88.456 E.01732
G1 X70.184 Y88.615 E.00848
G1 X70.481 Y88.761 E.01036
G1 X70.957 Y88.823 E.01506
G1 X71.495 Y88.762 E.01698
G1 X71.51 Y91.553 E.08751
G1 X71.496 Y92.35 E.025
G1 X71.517 Y92.836 E.01526
G1 X71.689 Y93.211 E.01294
G1 X72.044 Y93.515 E.01463
G1 X72.256 Y93.612 E.00733
G1 X72.66 Y93.696 E.01293
G1 X73.07 Y93.651 E.01292
G1 X73.451 Y93.485 E.01303
G1 X73.752 Y93.195 E.0131
G1 X73.936 Y92.843 E.01247
G1 X74.029 Y92.361 E.01538
G1 X74.014 Y88.794 E.11183
G1 X74.211 Y88.796 E.00618
G1 X74.804 Y88.751 E.01864
G1 X75.346 Y88.566 E.01795
G1 X75.642 Y88.302 E.01243
G1 X75.796 Y88.518 E.00831
G1 X76.002 Y88.728 E.00924
G1 X76.388 Y88.927 E.01362
G1 X76.349 Y88.97 E.00182
G1 X76.143 Y89.439 E.01607
G1 X76.116 Y89.968 E.01659
G1 X76.3 Y90.418 E.01525
G1 X76.57 Y90.682 E.01184
;WIDTH:0.454218
G1 X76.741 Y90.784 E.00682
;WIDTH:0.488436
G1 X76.913 Y90.886 E.00739
G1 X76.706 Y90.882 E.00765
;WIDTH:0.451998
G1 X76.111 Y91.029 E.02087
;WIDTH:0.419999
G1 X75.702 Y91.357 E.01645
G1 X75.551 Y91.574 E.00827
G1 X75.47 Y91.783 E.00702
G1 X75.418 Y92.196 E.01306
G1 X75.481 Y92.591 E.01253
G1 X75.625 Y92.924 E.01138
G1 X75.907 Y93.274 E.01409
G1 X76.32 Y93.549 E.01557
G1 X77.035 Y93.783 E.02358
G1 X77.915 Y93.839 E.02764
G1 X78.412 Y93.776 E.01571
G1 X79.172 Y93.501 E.02535
G1 X79.65 Y93.148 E.01863
G1 X80.075 Y92.635 E.02089
G1 X80.329 Y92.128 E.01779
G1 X80.372 Y92.697 E.01789
G1 X80.536 Y93.114 E.01406
G1 X80.871 Y93.502 E.01606
G1 X81.206 Y93.656 E.01158
G1 X81.56 Y93.702 E.01118
G1 X82.127 Y93.664 E.01782
G1 X82.878 Y93.67 E.02356
G1 X83.451 Y93.638 E.018
G1 X83.953 Y93.559 E.01594
G1 X84.446 Y93.408 E.01615
G1 X84.925 Y93.117 E.01761
G1 X85.163 Y92.88 E.01051
G1 X85.251 Y93.207 E.01063
G1 X85.54 Y93.626 E.01594
G1 X85.714 Y93.786 E.00742
G1 X86.257 Y94.072 E.01925
G1 X86.652 Y94.147 E.01261
G1 X87.179 Y94.097 E.01658
G1 X87.554 Y93.944 E.01271
G1 X87.972 Y93.622 E.01655
G1 X88.157 Y93.312 E.01131
G1 X88.218 Y93.424 E.00401
G1 X88.419 Y93.612 E.00861
G1 X88.632 Y93.738 E.00776
G1 X88.96 Y93.825 E.01064
G1 X89.401 Y93.779 E.01389
G1 X89.758 Y93.573 E.01294
G1 X90.109 Y93.076 E.01906
G1 X90.351 Y93.476 E.01466
G1 X90.643 Y93.722 E.01197
G1 X90.971 Y93.853 E.01106
G1 X91.326 Y93.873 E.01116
;WIDTH:0.439296
G1 X91.802 Y93.767 E.01606
;WIDTH:0.483411
G1 X92.028 Y93.614 E.01
;WIDTH:0.527525
G1 X92.254 Y93.462 E.011
;WIDTH:0.547457
G1 X92.44 Y93.181 E.01413
;WIDTH:0.575175
G1 X92.506 Y92.946 E.01079
;WIDTH:0.602892
G1 X92.571 Y92.711 E.01135
G1 X92.536 Y92.513 E.00937
;WIDTH:0.564571
G1 X92.501 Y92.315 E.00873
;WIDTH:0.526397
G1 X92.315 Y91.827 E.02101
G1 X92.11 Y91.519 E.01483
;WIDTH:0.490931
G1 X91.906 Y91.212 E.01374
;WIDTH:0.455465
G1 X91.701 Y90.905 E.01266
;WIDTH:0.419999
G1 X91.591 Y90.721 E.00673
G1 X92.116 Y89.776 E.0339
G1 X92.408 Y90.564 E.02636
;WIDTH:0.455465
G1 X92.521 Y90.915 E.01266
;WIDTH:0.490931
G1 X92.635 Y91.266 E.01374
;WIDTH:0.526397
G1 X92.957 Y92.161 E.03823
;WIDTH:0.564571
G1 X93.055 Y92.438 E.01275
;WIDTH:0.602892
G1 X93.153 Y92.715 E.01369
G1 X92.96 Y93.239 E.02603
;WIDTH:0.564938
G1 X92.742 Y93.709 E.02247
G1 X92.589 Y93.786 E.00744
;WIDTH:0.528485
G1 X92.436 Y93.863 E.00692
;WIDTH:0.492032
G1 X92.282 Y93.939 E.0064
;WIDTH:0.455578
G1 X91.92 Y94.163 E.01462
;WIDTH:0.435037
G1 X91.679 Y94.409 E.0112
;WIDTH:0.419999
G1 X91.529 Y94.755 E.01186
G1 X91.526 Y95.3 E.01707
G1 X91.693 Y95.743 E.01486
G1 X92.013 Y96.124 E.0156
G1 X92.247 Y96.269 E.00862
;WIDTH:0.459882
G1 X92.444 Y96.333 E.00721
;WIDTH:0.499765
G1 X92.642 Y96.398 E.0079
;WIDTH:0.539648
G1 X92.84 Y96.463 E.00859
G1 X93.437 Y96.361 E.02503
;WIDTH:0.549229
G1 X94.036 Y96.14 E.02687
G1 X94.103 Y96.076 E.0039
;WIDTH:0.505936
G1 X94.17 Y96.012 E.00357
;WIDTH:0.462643
G1 X94.554 Y95.645 E.01853
;WIDTH:0.419999
G1 X94.894 Y95.139 E.01914
G1 X95.307 Y94.181 E.03269
G1 X95.562 Y93.524 E.02212
G1 X96.524 Y90.834 E.08957
G1 X96.854 Y89.78 E.03463
M73 P1 R63
G1 X97.007 Y89.923 E.00658
G1 X97.274 Y90.063 E.00944
G1 X97.795 Y90.154 E.01657
G1 X97.378 Y90.637 E.02002
;WIDTH:0.459462
G1 X96.77 Y91.436 E.03477
G1 X96.515 Y91.974 E.02061
;WIDTH:0.421805
G1 X96.453 Y92.183 E.00688
G1 X96.436 Y92.793 E.01922
;WIDTH:0.419999
G1 X96.619 Y93.292 E.01665
G1 X96.943 Y93.662 E.01543
G1 X97.361 Y93.842 E.01426
G1 X97.589 Y93.882 E.00726
G1 X99.365 Y93.832 E.05572
G1 X98.429 Y94.554 E.03708
G1 X97.537 Y95.161 E.03382
G1 X96.431 Y95.781 E.03976
G1 X95.563 Y96.19 E.03008
G1 X94.998 Y96.417 E.01909
;WIDTH:0.44676
G1 X94.721 Y96.5 E.00971
;WIDTH:0.473521
G1 X94.444 Y96.583 E.01035
;WIDTH:0.506183
G1 X94.199 Y96.641 E.00972
;WIDTH:0.538844
G1 X93.195 Y96.902 E.04277
;WIDTH:0.526255
G1 X92.871 Y96.993 E.01351
;WIDTH:0.476444
G1 X92.548 Y97.085 E.01212
;WIDTH:0.426633
G1 X91.99 Y97.178 E.01804
;WIDTH:0.419999
G1 X91.385 Y97.249 E.01909
G1 X90.758 Y97.294 E.01973
G1 X89.991 Y97.312 E.02405
G1 X89.183 Y97.285 E.02535
G1 X65.993 Y95.876 E.72844
G1 X65.569 Y95.797 E.01351
G1 X65.352 Y95.708 E.00737
G1 X65.109 Y95.488 E.01027
G1 X65.008 Y95.263 E.00774
G1 X64.918 Y94.922 E.01105
G1 X64.912 Y92.434 E.07802
G1 X65.188 Y92.808 E.01457
G1 X65.762 Y93.307 E.02384
G1 X66.546 Y93.687 E.02733
G1 X67.207 Y93.821 E.02115
G1 X68.025 Y93.817 E.02565
G1 X68.474 Y93.74 E.01429
G1 X68.868 Y93.607 E.01302
G1 X69.224 Y93.417 E.01266
G1 X69.539 Y93.172 E.01252
G1 X69.867 Y92.785 E.0159
G1 X70.098 Y92.304 E.01673
G1 X70.153 Y92.082 E.00718
G1 X70.099 Y91.669 E.01307
G1 X69.991 Y91.416 E.00862
G1 X69.813 Y91.182 E.0092
G1 X69.641 Y91.032 E.00717
G1 X69.187 Y90.807 E.01587
G1 X68.713 Y90.763 E.01492
M204 P1000
G1 X68.712 Y91.135 F9000
M204 P600
;TYPE:External perimeter
G1 F1200
G1 X69.094 Y91.176 E.01208
G1 X69.513 Y91.41 E.01503
G1 X69.726 Y91.728 E.01201
G1 X69.772 Y92.1 E.01175
G1 X69.545 Y92.587 E.01686
G1 X69.288 Y92.89 E.01245
G1 X69.041 Y93.088 E.00993
G1 X68.741 Y93.252 E.01071
G1 X68.402 Y93.37 E.01125
G1 X68.024 Y93.44 E.01207
G1 X67.206 Y93.444 E.02565
G1 X66.629 Y93.319 E.01851
G1 X65.934 Y92.971 E.02438
G1 X65.442 Y92.53 E.02069
G1 X65.135 Y92.092 E.01679
;WIDTH:0.446651
G1 X64.918 Y91.589 E.01837
G1 X64.82 Y90.881 E.02399
;WIDTH:0.423163
G1 X64.785 Y90.038 E.02667
;WIDTH:0.420571
