;FLAVOR:Marlin
;TIME:259
;Filament used: 0.196586m
;Layer height: 0.1
;MINX:72.171
;MINY:78.642
;MINZ:0.3
;MAXX:127.65
;MAXY:121.365
;MAXZ:0.5
;Generated with Cura_SteamEngine 5.3.0
M140 S60
M105
M190 S60
M104 S200
M105
M109 S200
M82 ;absolute extrusion mode
G21 ;metric values
G90 ;absolute positioning
M82 ;set extruder to absolute mode
M107 ;start with the fan off
G28 X0 Y0 ;move X/Y to min endstops
G28 Z0 ;move Z to min endstops
G1 Z15.0 F9000 ;move the platform down 15mm
G92 E0 ;zero the extruded length
G1 F200 E3 ;extrude 3mm of feed stock
G92 E0 ;zero the extruded length again
G1 F9000
;Put printing message on LCD screen
M117 Printing...
G92 E0
G92 E0
G1 F1500 E-6.5
;LAYER_COUNT:3
;LAYER:0
M107
G0 F3600 X80.852 Y83.828 Z0.3
;TYPE:SKIRT
G1 F1500 E0
G1 F1800 X82.354 Y82.406 E0.10319
G1 X84.533 Y81.15 E0.22867
G1 X86.469 Y80.571 E0.32948
G1 X86.935 Y80.526 E0.35284
G1 X87.343 Y80.188 E0.37927
G1 X89.173 Y79.173 E0.48367
G1 X91.222 Y78.734 E0.58822
G1 X92.861 Y78.748 E0.66999
G1 X93.516 Y78.642 E0.7031
G1 X95.917 Y78.804 E0.82315
G1 X98.24 Y79.837 E0.94999
G1 X100.106 Y81.33 E1.06922
G1 X101.284 Y82.714 E1.15989
G1 X101.916 Y83.992 E1.23102
G1 X102.687 Y83.831 E1.27032
G1 X104.778 Y83.832 E1.37464
G1 X105.605 Y83.997 E1.41671
G1 X106.585 Y83.09 E1.48333
G1 X107.501 Y82.441 E1.53933
G1 X109.844 Y81.542 E1.66454
G1 X112.015 Y81.518 E1.77285
G1 X112.293 Y81.549 E1.78681
G1 X113.049 Y81.483 E1.82467
G1 X115.469 Y81.898 E1.94717
G1 X117.751 Y82.905 E2.07161
G1 X119.3 Y84.447 E2.18065
G1 X120.305 Y85.727 E2.26184
G1 X121.177 Y87.605 E2.36515
G1 X121.483 Y89.364 E2.45422
G1 X121.483 Y91.408 E2.5562
G1 X121.204 Y92.941 E2.63393
G1 X121.238 Y93.2 E2.64697
G1 X121.532 Y94.29 E2.70329
G1 X121.383 Y96.3 E2.80384
G1 X122.133 Y96.879 E2.85111
G1 X122.447 Y97.092 E2.87004
G1 X123.367 Y97.809 E2.92824
G1 X124.493 Y98.896 E3.00632
G1 X125.95 Y100.458 E3.11289
G1 X127.043 Y102.297 E3.21962
G1 X127.65 Y104.764 E3.34637
G1 X127.394 Y107.303 E3.47368
G1 X126.627 Y108.949 E3.56428
G1 X125.914 Y110.103 E3.63195
G1 X124.792 Y111.316 E3.71439
G1 X123.029 Y112.422 E3.81822
G1 X120.645 Y113.118 E3.94212
G1 X118.436 Y112.992 E4.05251
G1 X116.071 Y112.42 E4.1739
G1 X114.313 Y111.622 E4.27022
G1 X113.997 Y111.388 E4.28984
G1 X112.896 Y112.112 E4.35558
G1 X111.698 Y112.538 E4.41901
G1 X109.701 Y113.3 E4.52565
G1 X107.826 Y113.3 E4.6192
G1 X106.881 Y113.311 E4.66635
G1 X105.252 Y113.473 E4.74802
G1 X103.43 Y113.083 E4.84098
G1 X102.141 Y112.978 E4.9055
G1 X100.272 Y112.713 E4.99968
G1 X99.859 Y113.587 E5.0479
G1 X99.517 Y114.019 E5.07539
G1 X99.286 Y114.569 E5.10515
G1 X98.305 Y115.809 E5.18404
G1 X97.911 Y116.427 E5.2206
G1 X96.709 Y117.922 E5.31631
G1 X94.599 Y119.45 E5.44628
G1 X91.653 Y120.747 E5.60687
G1 X89.688 Y121.365 E5.70964
G1 X87.827 Y121.364 E5.80248
G1 X85.214 Y121.049 E5.93379
G1 X83.803 Y120.69 E6.00643
G1 X81.933 Y119.778 E6.11022
G1 X80.355 Y118.775 E6.20351
G1 X79.02 Y117.362 E6.30049
G1 X78.875 Y117.165 E6.31269
G1 X77.849 Y116.709 E6.36871
G1 X76.626 Y116.203 E6.43474
G1 X75.752 Y115.699 E6.48508
G1 X73.737 Y113.759 E6.62462
G1 X72.582 Y111.467 E6.75267
G1 X72.193 Y109.561 E6.84972
G1 X72.171 Y107.491 E6.953
G1 X72.86 Y105.332 E7.06607
G1 X73.585 Y104.089 E7.13786
G1 X75.406 Y101.493 E7.29606
G1 X78.314 Y99.483 E7.47242
G1 X78.345 Y98.993 E7.49692
G1 X78.343 Y96.982 E7.59725
G1 X79.383 Y92.921 E7.80639
G1 X79.735 Y92.304 E7.84183
G1 X79.646 Y92.106 E7.85266
G1 X79.161 Y90.113 E7.95499
G1 X79.161 Y88.105 E8.05517
G1 X79.495 Y86.392 E8.14224
G1 X80.311 Y84.664 E8.23758
G1 X80.852 Y83.828 E8.28726
G0 F3600 X81.162 Y84.085
G1 F1800 X82.592 Y82.731 E8.38551
G1 X84.695 Y81.519 E8.50661
G1 X86.584 Y80.954 E8.60498
G1 X87.096 Y80.915 E8.63059
G1 X87.537 Y80.538 E8.65954
G1 X89.316 Y79.551 E8.76104
G1 X91.262 Y79.134 E8.86033
G1 X92.892 Y79.148 E8.94165
G1 X93.536 Y79.044 E8.9742
G1 X95.82 Y79.198 E9.08841
G1 X98.03 Y80.181 E9.20908
G1 X99.825 Y81.617 E9.32376
G1 X100.947 Y82.935 E9.41012
G1 X101.695 Y84.447 E9.49428
G1 X102.731 Y84.231 E9.54707
G1 X104.74 Y84.232 E9.6473
G1 X105.769 Y84.437 E9.69965
G1 X106.095 Y84.089 E9.72344
G1 X106.857 Y83.384 E9.77523
G1 X107.692 Y82.796 E9.82618
G1 X109.919 Y81.941 E9.94519
G1 X111.971 Y81.916 E10.04758
G1 X112.284 Y81.951 E10.06329
G1 X113.032 Y81.886 E10.10075
G1 X115.352 Y82.283 E10.21818
G1 X117.521 Y83.24 E10.33645
G1 X118.985 Y84.694 E10.43939
G1 X119.962 Y85.939 E10.51835
G1 X120.792 Y87.726 E10.61665
G1 X121.083 Y89.399 E10.70137
G1 X121.083 Y91.369 E10.79965
G1 X120.799 Y92.93 E10.87881
G1 X120.844 Y93.274 E10.89612
G1 X121.128 Y94.327 E10.95053
G1 X120.968 Y96.485 E11.05849
G1 X121.894 Y97.2 E11.11686
G1 X122.201 Y97.408 E11.13536
G1 X123.121 Y98.125 E11.19355
G1 X124.2 Y99.169 E11.26845
G1 X125.629 Y100.701 E11.37297
G1 X126.669 Y102.451 E11.47454
G1 X127.245 Y104.792 E11.59481
G1 X127.003 Y107.194 E11.71525
G1 X126.264 Y108.78 E11.80255
G1 X125.595 Y109.858 E11.86585
G1 X124.534 Y111.005 E11.9438
G1 X122.862 Y112.054 E12.04227
G1 X120.598 Y112.715 E12.15994
G1 X118.498 Y112.595 E12.26488
G1 X116.199 Y112.039 E12.38288
G1 X114.478 Y111.258 E12.47717
G1 X114.018 Y110.895 E12.50641
G1 X112.717 Y111.751 E12.5841
G1 X111.555 Y112.164 E12.64563
G1 X109.626 Y112.9 E12.74863
G1 X107.819 Y112.9 E12.83879
G1 X107.037 Y112.914 E12.87781
G1 X106.867 Y112.91 E12.88629
G1 X105.274 Y113.069 E12.96616
G1 X103.485 Y112.686 E13.05744
G1 X102.174 Y112.579 E13.12306
G1 X100.036 Y112.275 E13.2308
G1 X99.516 Y113.375 E13.2915
G1 X99.169 Y113.814 E13.31942
G1 X98.938 Y114.364 E13.34918
G1 X97.979 Y115.577 E13.42632
G1 X97.599 Y116.176 E13.46171
G1 X96.43 Y117.63 E13.55479
G1 X94.397 Y119.102 E13.68001
G1 X91.533 Y120.365 E13.83618
G1 X89.625 Y120.965 E13.93596
G1 X87.827 Y120.964 E14.02567
G1 X85.313 Y120.661 E14.152
G1 X83.941 Y120.312 E14.22263
G1 X82.148 Y119.44 E14.3221
G1 X80.611 Y118.463 E14.41296
G1 X79.311 Y117.087 E14.5074
G1 X79.124 Y116.826 E14.52342
G1 X78.587 Y116.599 E14.55251
G1 X78.002 Y116.339 E14.58444
G1 X76.779 Y115.833 E14.65048
G1 X75.992 Y115.376 E14.69588
G1 X74.064 Y113.519 E14.82943
G1 X72.964 Y111.336 E14.95138
G1 X72.593 Y109.518 E15.04395
G1 X72.572 Y107.551 E15.14209
G1 X73.227 Y105.498 E15.2496
G1 X73.931 Y104.291 E15.31932
G1 X75.692 Y101.781 E15.47229
G1 X78.701 Y99.702 E15.65475
G1 X78.745 Y99.002 E15.68975
G1 X78.743 Y97.034 E15.78793
G1 X79.758 Y93.069 E15.99212
G1 X80.187 Y92.318 E16.03527
G1 X80.035 Y92.011 E16.05236
G1 X79.561 Y90.063 E16.15239
G1 X79.561 Y88.146 E16.24802
G1 X79.879 Y86.517 E16.33083
G1 X80.673 Y84.835 E16.42363
G1 X81.162 Y84.085 E16.46829
G0 F3600 X81.473 Y84.341
G1 F1800 X82.83 Y83.056 E16.56153
G1 X84.857 Y81.888 E16.67825
G1 X86.699 Y81.337 E16.77417
G1 X87.258 Y81.306 E16.8021
G1 X87.731 Y80.888 E16.83359
G1 X89.459 Y79.929 E16.93219
G1 X91.302 Y79.534 E17.02622
G1 X92.923 Y79.548 E17.1071
G1 X93.556 Y79.446 E17.13909
G1 X95.72 Y79.592 E17.24729
G1 X97.823 Y80.527 E17.36212
G1 X99.544 Y81.904 E17.47208
G1 X100.61 Y83.156 E17.55411
G1 X101.357 Y84.666 E17.63816
G1 X101.428 Y84.912 E17.65094
G1 X102.775 Y84.631 E17.71959
G1 X104.702 Y84.632 E17.81572
G1 X105.91 Y84.873 E17.87718
G1 X106.367 Y84.383 E17.91061
G1 X107.129 Y83.678 E17.9624
G1 X107.884 Y83.15 E18.00836
G1 X109.994 Y82.34 E18.12112
G1 X111.927 Y82.314 E18.21757
G1 X112.28 Y82.353 E18.23529
G1 X113.018 Y82.289 E18.27224
G1 X115.236 Y82.669 E18.38451
G1 X117.291 Y83.575 E18.49656
G1 X118.67 Y84.941 E18.5934
G1 X119.618 Y86.149 E18.67001
G1 X120.408 Y87.849 E18.76353
G1 X120.683 Y89.432 E18.84369
G1 X120.683 Y91.331 E18.93843
G1 X120.487 Y92.41 E18.99314
G1 X120.399 Y92.951 E19.02049
G1 X120.45 Y93.348 E19.04046
G1 X120.724 Y94.364 E19.09296
G1 X120.569 Y96.457 E19.19766
G1 X120.513 Y96.671 E19.2087
G1 X120.763 Y96.829 E19.22345
G1 X121.657 Y97.522 E19.27989
G1 X121.955 Y97.724 E19.29785
G1 X122.875 Y98.441 E19.35604
G1 X123.907 Y99.442 E19.42777
G1 X125.308 Y100.944 E19.53024
G1 X126.295 Y102.605 E19.62664
G1 X126.84 Y104.82 E19.74044
G1 X126.612 Y107.085 E19.85401
G1 X125.901 Y108.611 E19.938
G1 X125.277 Y109.611 E19.99681
G1 X124.276 Y110.694 E20.07038
G1 X122.695 Y111.686 E20.1635
G1 X120.551 Y112.312 E20.27493
G1 X118.56 Y112.198 E20.37443
G1 X116.327 Y111.658 E20.48904
G1 X114.643 Y110.894 E20.5813
G1 X114.046 Y110.398 E20.62002
G1 X112.538 Y111.39 E20.71007
G1 X111.412 Y111.79 E20.76969
G1 X109.551 Y112.5 E20.86906
G1 X107.812 Y112.5 E20.95582
G1 X107.045 Y112.514 E20.99409
G1 X106.852 Y112.51 E21.00373
G1 X105.296 Y112.665 E21.08174
G1 X103.54 Y112.289 E21.17133
G1 X102.207 Y112.18 E21.23806
G1 X99.8 Y111.837 E21.35936
G1 X99.172 Y113.167 E21.43274
G1 X98.82 Y113.611 E21.461
G1 X98.59 Y114.159 E21.49065
G1 X97.65 Y115.347 E21.56623
G1 X97.287 Y115.925 E21.60028
G1 X96.151 Y117.338 E21.69074
G1 X94.197 Y118.753 E21.8111
G1 X91.413 Y119.983 E21.96295
G1 X89.562 Y120.565 E22.05975
G1 X87.827 Y120.564 E22.14631
G1 X85.412 Y120.273 E22.26767
G1 X84.079 Y119.934 E22.33629
G1 X82.363 Y119.102 E22.43143
G1 X80.867 Y118.151 E22.51987
G1 X79.602 Y116.812 E22.61177
G1 X79.387 Y116.502 E22.63059
G1 X78.749 Y116.233 E22.66513
G1 X78.155 Y115.969 E22.69756
G1 X76.932 Y115.463 E22.7636
G1 X76.234 Y115.054 E22.80396
G1 X74.391 Y113.279 E22.93161
G1 X73.346 Y111.205 E23.04748
G1 X72.993 Y109.475 E23.13557
G1 X72.973 Y107.611 E23.22857
G1 X73.594 Y105.664 E23.33053
G1 X74.277 Y104.493 E23.39816
G1 X75.978 Y102.069 E23.5459
G1 X79.088 Y99.921 E23.73447
G1 X79.145 Y99.011 E23.77996
G1 X79.143 Y97.082 E23.87619
G1 X80.132 Y93.22 E24.07509
G1 X80.644 Y92.323 E24.12662
G1 X80.424 Y91.916 E24.1497
G1 X79.961 Y90.013 E24.24741
G1 X79.961 Y88.187 E24.33851
G1 X80.263 Y86.641 E24.4171
G1 X81.008 Y85.054 E24.50456
G1 X81.473 Y84.341 E24.54703
G0 F3600 X81.784 Y84.597
G1 F1800 X83.068 Y83.381 E24.63526
G1 X85.019 Y82.257 E24.74759
G1 X86.814 Y81.72 E24.84106
G1 X87.415 Y81.701 E24.87106
G1 X87.964 Y81.216 E24.90761
G1 X89.602 Y80.307 E25.00107
G1 X91.342 Y79.934 E25.08985
G1 X92.953 Y79.948 E25.17023
G1 X93.575 Y79.848 E25.20166
G1 X95.623 Y79.986 E25.30407
G1 X97.613 Y80.871 E25.41272
G1 X99.263 Y82.191 E25.51814
G1 X100.273 Y83.377 E25.59586
G1 X100.998 Y84.843 E25.67745
G1 X101.129 Y85.359 E25.70401
G1 X101.539 Y85.3 E25.72468
G1 X102.815 Y85.031 E25.78974
G1 X104.664 Y85.032 E25.88199
G1 X106.051 Y85.309 E25.95255
G1 X106.639 Y84.677 E25.99562
G1 X107.401 Y83.972 E26.04741
G1 X108.076 Y83.504 E26.08839
G1 X110.069 Y82.739 E26.19489
G1 X111.883 Y82.712 E26.2854
G1 X112.275 Y82.755 E26.30508
G1 X113.004 Y82.692 E26.34158
G1 X115.119 Y83.054 E26.44863
G1 X117.063 Y83.911 E26.55463
G1 X118.355 Y85.188 E26.64526
G1 X119.274 Y86.359 E26.71952
G1 X120.023 Y87.971 E26.8082
G1 X120.283 Y89.466 E26.88391
G1 X120.283 Y91.293 E26.97506
G1 X120.093 Y92.339 E27.0281
G1 X119.994 Y92.944 E27.05868
G1 X120.056 Y93.423 E27.08278
G1 X120.32 Y94.401 E27.13332
G1 X120.17 Y96.427 E27.23467
G1 X120.039 Y96.846 E27.25657
G1 X120.518 Y97.145 E27.28474
G1 X121.433 Y97.854 E27.34249
G1 X121.709 Y98.04 E27.3591
G1 X122.629 Y98.757 E27.41729
G1 X123.614 Y99.715 E27.48584
G1 X124.987 Y101.187 E27.58627
G1 X125.921 Y102.759 E27.67749
G1 X126.435 Y104.848 E27.78482
G1 X126.221 Y106.976 E27.89152
G1 X125.538 Y108.442 E27.97221
G1 X124.958 Y109.366 E28.02664
G1 X124.018 Y110.383 E28.09573
G1 X122.528 Y111.318 E28.18349
G1 X120.504 Y111.909 E28.28869
G1 X118.622 Y111.801 E28.38273
G1 X116.455 Y111.277 E28.49396
G1 X114.86 Y110.554 E28.58133
G1 X114.074 Y109.901 E28.63231
G1 X112.359 Y111.029 E28.73472
G1 X111.269 Y111.416 E28.79243
G1 X109.476 Y112.1 E28.88817
G1 X107.805 Y112.1 E28.97153
G1 X107.054 Y112.114 E29.00901
G1 X106.837 Y112.109 E29.01984
G1 X105.318 Y112.261 E29.096
G1 X103.595 Y111.892 E29.18391
G1 X102.24 Y111.781 E29.25174
G1 X99.534 Y111.395 E29.38811
G1 X99.44 Y111.662 E29.40223
G1 X98.829 Y112.956 E29.47362
G1 X98.472 Y113.406 E29.50228
G1 X98.242 Y113.954 E29.53193
G1 X97.324 Y115.114 E29.60573
G1 X96.975 Y115.674 E29.63865
G1 X95.872 Y117.046 E29.72648
G1 X93.997 Y118.404 E29.84198
G1 X91.293 Y119.601 E29.98951
G1 X89.499 Y120.165 E30.08333
G1 X87.827 Y120.164 E30.16675
G1 X85.51 Y119.885 E30.28318
G1 X84.215 Y119.556 E30.34984
G1 X82.578 Y118.764 E30.44057
G1 X81.123 Y117.839 E30.52658
G1 X79.893 Y116.537 E30.61594
G1 X79.651 Y116.179 E30.6375
G1 X78.934 Y115.878 E30.6763
G1 X78.562 Y115.684 E30.69723
G1 X78.308 Y115.599 E30.71059
G1 X77.085 Y115.093 E30.77662
G1 X76.476 Y114.732 E30.81194
G1 X74.718 Y113.039 E30.93371
G1 X73.728 Y111.074 E31.04348
G1 X73.393 Y109.432 E31.12709
G1 X73.374 Y107.671 E31.21495
G1 X73.962 Y105.828 E31.31146
G1 X74.623 Y104.694 E31.37695
G1 X76.264 Y102.357 E31.51942
G1 X79.475 Y100.14 E31.71409
G1 X79.545 Y99.02 E31.77007
G1 X79.543 Y97.13 E31.86437
G1 X80.506 Y93.371 E32.05796
G1 X81.106 Y92.319 E32.11838
G1 X80.813 Y91.821 E32.14721
G1 X80.361 Y89.963 E32.24261
G1 X80.361 Y88.228 E32.32917
G1 X80.647 Y86.762 E32.40368
G1 X81.343 Y85.273 E32.48568
G1 X81.784 Y84.597 E32.52595
G0 F3600 X82.095 Y84.853
G1 F1800 X83.306 Y83.706 E32.60917
G1 X85.181 Y82.626 E32.71712
G1 X86.929 Y82.103 E32.80815
G1 X87.567 Y82.101 E32.83998
G1 X88.197 Y81.544 E32.88193
G1 X89.745 Y80.685 E32.97026
G1 X91.382 Y80.334 E33.05378
G1 X92.983 Y80.348 E33.13366
G1 X93.594 Y80.25 E33.16453
G1 X95.526 Y80.38 E33.26114
G1 X97.403 Y81.215 E33.36363
G1 X98.982 Y82.478 E33.46451
G1 X99.938 Y83.601 E33.53809
G1 X100.62 Y84.979 E33.61479
G1 X100.83 Y85.807 E33.65741
G1 X101.603 Y85.695 E33.69638
G1 X102.855 Y85.431 E33.76021
G1 X104.626 Y85.432 E33.84857
G1 X106.026 Y85.712 E33.9198
G1 X106.173 Y85.765 E33.9276
G1 X106.911 Y84.971 E33.98168
G1 X107.673 Y84.266 E34.03347
G1 X108.266 Y83.859 E34.06935
G1 X110.144 Y83.138 E34.16971
G1 X111.84 Y83.11 E34.25434
G1 X112.271 Y83.157 E34.27597
G1 X112.99 Y83.095 E34.31197
G1 X115.003 Y83.44 E34.41387
G1 X116.833 Y84.247 E34.51365
G1 X118.04 Y85.435 E34.59814
G1 X118.93 Y86.569 E34.67006
G1 X119.639 Y88.094 E34.75396
G1 X119.883 Y89.499 E34.82511
G1 X119.883 Y91.255 E34.91271
G1 X119.699 Y92.268 E34.96408
G1 X119.589 Y92.938 E34.99795
G1 X119.662 Y93.498 E35.02613
G1 X119.916 Y94.438 E35.07471
G1 X119.771 Y96.397 E35.17271
G1 X119.557 Y97.018 E35.20548
G1 X120.273 Y97.461 E35.24749
G1 X121.2 Y98.179 E35.30598
G1 X121.463 Y98.356 E35.3218
G1 X122.383 Y99.073 E35.37999
G1 X123.321 Y99.988 E35.44537
G1 X124.666 Y101.43 E35.54375
G1 X125.547 Y102.913 E35.6298
G1 X126.03 Y104.876 E35.73066
G1 X125.83 Y106.867 E35.83049
G1 X125.175 Y108.273 E35.90787
G1 X124.64 Y109.121 E35.9579
G1 X123.762 Y110.071 E36.02243
G1 X122.361 Y110.95 E36.10495
G1 X120.457 Y111.506 E36.20391
G1 X118.684 Y111.404 E36.29251
G1 X116.583 Y110.896 E36.40035
G1 X115.077 Y110.214 E36.48283
G1 X114.102 Y109.404 E36.54607
G1 X112.18 Y110.668 E36.66083
G1 X111.126 Y111.042 E36.71663
G1 X109.401 Y111.7 E36.80874
G1 X107.797 Y111.7 E36.88876
G1 X107.062 Y111.714 E36.92544
G1 X106.822 Y111.709 E36.93742
G1 X105.34 Y111.857 E37.01172
G1 X103.65 Y111.495 E37.09795
G1 X102.273 Y111.382 E37.16688
G1 X99.825 Y111.033 E37.29024
G1 X99.276 Y110.918 E37.31823
G1 X99.078 Y111.491 E37.34847
G1 X98.486 Y112.744 E37.41761
G1 X98.124 Y113.201 E37.4467
G1 X97.894 Y113.749 E37.47635
G1 X96.999 Y114.88 E37.5483
G1 X96.663 Y115.423 E37.58016
G1 X95.593 Y116.754 E37.66536
G1 X93.796 Y118.055 E37.77604
G1 X91.173 Y119.219 E37.91921
G1 X89.436 Y119.765 E38.01005
G1 X87.827 Y119.764 E38.09033
G1 X85.608 Y119.497 E38.20183
G1 X84.351 Y119.178 E38.26653
G1 X82.793 Y118.426 E38.35284
G1 X81.379 Y117.527 E38.43644
G1 X80.184 Y116.262 E38.52325
G1 X79.918 Y115.857 E38.54743
G1 X79.089 Y115.509 E38.59228
G1 X78.722 Y115.316 E38.61297
G1 X78.461 Y115.229 E38.6267
G1 X77.238 Y114.723 E38.69273
G1 X76.718 Y114.41 E38.72301
G1 X75.045 Y112.799 E38.83888
G1 X74.11 Y110.943 E38.94256
G1 X73.793 Y109.389 E39.02169
G1 X73.775 Y107.73 E39.10446
G1 X74.328 Y105.995 E39.19531
G1 X74.969 Y104.896 E39.25879
G1 X76.549 Y102.646 E39.39595
G1 X79.666 Y100.49 E39.58503
G1 X79.859 Y100.399 E39.59568
G1 X79.945 Y99.029 E39.66416
G1 X79.943 Y97.178 E39.75651
G1 X80.88 Y93.522 E39.94481
G1 X81.573 Y92.307 E40.01459
G1 X81.202 Y91.726 E40.04898
